(G-CODE GENERATED BY FLATCAM v8.993 - www.flatcam.org - Version Date: 2020/08/01)

(Name: quick reset-Edge_Cuts.gbr_cutout_cnc)
(Type: G-code from Geometry)
(Units: MM)

(Created on Saturday, 14 November 2020 at 17:41)

(This preprocessor is used with a motion controller loaded with GRBL firmware.)
(It is configured to be compatible with almost any version of GRBL firmware.)

(TOOL DIAMETER: 1.0 mm)
(Feedrate_XY: 120.0 mm/min)
(Feedrate_Z: 60.0 mm/min)
(Feedrate rapids 1500.0 mm/min)

(Z_Cut: -1.85 mm)
(DepthPerCut: 0.6 mm <=>4 passes)
(Z_Move: 0.5 mm)
(Z Start: None mm)
(Z End: 20.0 mm)
(Steps per circle: 64)
(Preprocessor Geometry: grbl_11)

(X range:    0.3750 ...   30.2000  mm)
(Y range:    0.2670 ...   18.5350  mm)

(Spindle Speed: 10000 RPM)
G21
G90
G17
G94




G01 F120.00
G00 Z0.5000

M03 S10000
G00 X0.3750 Y8.5010
G01 F60.00
G01 Z-0.6000
G01 F120.00
G01 X0.3750 Y0.8670 F120.00
G01 X0.3779 Y0.8082 F120.00
G01 X0.3865 Y0.7499 F120.00
G01 X0.4008 Y0.6928 F120.00
G01 X0.4207 Y0.6374 F120.00
G01 X0.4458 Y0.5841 F120.00
G01 X0.4761 Y0.5336 F120.00
G01 X0.5112 Y0.4864 F120.00
G01 X0.5507 Y0.4427 F120.00
G01 X0.5944 Y0.4032 F120.00
G01 X0.6416 Y0.3681 F120.00
G01 X0.6921 Y0.3378 F120.00
G01 X0.7454 Y0.3127 F120.00
G01 X0.8008 Y0.2928 F120.00
G01 X0.8579 Y0.2785 F120.00
G01 X0.9162 Y0.2699 F120.00
G01 X0.9750 Y0.2670 F120.00
G01 X14.3875 Y0.2670 F120.00
G00 X14.3875 Y0.2670
G01 F60.00
G01 Z-1.2000
G01 F120.00
G01 X0.9750 Y0.2670 F120.00
G01 X0.9162 Y0.2699 F120.00
G01 X0.8579 Y0.2785 F120.00
G01 X0.8008 Y0.2928 F120.00
G01 X0.7454 Y0.3127 F120.00
G01 X0.6921 Y0.3378 F120.00
G01 X0.6416 Y0.3681 F120.00
G01 X0.5944 Y0.4032 F120.00
G01 X0.5507 Y0.4427 F120.00
G01 X0.5112 Y0.4864 F120.00
G01 X0.4761 Y0.5336 F120.00
G01 X0.4458 Y0.5841 F120.00
G01 X0.4207 Y0.6374 F120.00
G01 X0.4008 Y0.6928 F120.00
G01 X0.3865 Y0.7499 F120.00
G01 X0.3779 Y0.8082 F120.00
G01 X0.3750 Y0.8670 F120.00
G01 X0.3750 Y8.5010 F120.00
G00 X0.3750 Y8.5010
G01 F60.00
G01 Z-1.8000
G01 F120.00
G01 X0.3750 Y0.8670 F120.00
G01 X0.3779 Y0.8082 F120.00
G01 X0.3865 Y0.7499 F120.00
G01 X0.4008 Y0.6928 F120.00
G01 X0.4207 Y0.6374 F120.00
G01 X0.4458 Y0.5841 F120.00
G01 X0.4761 Y0.5336 F120.00
G01 X0.5112 Y0.4864 F120.00
G01 X0.5507 Y0.4427 F120.00
G01 X0.5944 Y0.4032 F120.00
G01 X0.6416 Y0.3681 F120.00
G01 X0.6921 Y0.3378 F120.00
G01 X0.7454 Y0.3127 F120.00
G01 X0.8008 Y0.2928 F120.00
G01 X0.8579 Y0.2785 F120.00
G01 X0.9162 Y0.2699 F120.00
G01 X0.9750 Y0.2670 F120.00
G01 X14.3875 Y0.2670 F120.00
G00 X14.3875 Y0.2670
G01 F60.00
G01 Z-1.8500
G01 F120.00
G01 X0.9750 Y0.2670 F120.00
G01 X0.9162 Y0.2699 F120.00
G01 X0.8579 Y0.2785 F120.00
G01 X0.8008 Y0.2928 F120.00
G01 X0.7454 Y0.3127 F120.00
G01 X0.6921 Y0.3378 F120.00
G01 X0.6416 Y0.3681 F120.00
G01 X0.5944 Y0.4032 F120.00
G01 X0.5507 Y0.4427 F120.00
G01 X0.5112 Y0.4864 F120.00
G01 X0.4761 Y0.5336 F120.00
G01 X0.4458 Y0.5841 F120.00
G01 X0.4207 Y0.6374 F120.00
G01 X0.4008 Y0.6928 F120.00
G01 X0.3865 Y0.7499 F120.00
G01 X0.3779 Y0.8082 F120.00
G01 X0.3750 Y0.8670 F120.00
G01 X0.3750 Y8.5010 F120.00
G00 Z0.5000
G00 X0.3750 Y10.5010
G01 F60.00
G01 Z-0.6000
G01 F120.00
G01 X0.3750 Y17.9350 F120.00
G01 X0.3779 Y17.9938 F120.00
G01 X0.3865 Y18.0521 F120.00
G01 X0.4008 Y18.1092 F120.00
G01 X0.4207 Y18.1646 F120.00
G01 X0.4458 Y18.2179 F120.00
G01 X0.4761 Y18.2684 F120.00
G01 X0.5112 Y18.3156 F120.00
G01 X0.5507 Y18.3593 F120.00
G01 X0.5944 Y18.3988 F120.00
G01 X0.6416 Y18.4339 F120.00
G01 X0.6921 Y18.4642 F120.00
G01 X0.7454 Y18.4893 F120.00
G01 X0.8008 Y18.5092 F120.00
G01 X0.8579 Y18.5235 F120.00
G01 X0.9162 Y18.5321 F120.00
G01 X0.9750 Y18.5350 F120.00
G01 X14.3875 Y18.5350 F120.00
G00 X14.3875 Y18.5350
G01 F60.00
G01 Z-1.2000
G01 F120.00
G01 X0.9750 Y18.5350 F120.00
G01 X0.9162 Y18.5321 F120.00
G01 X0.8579 Y18.5235 F120.00
G01 X0.8008 Y18.5092 F120.00
G01 X0.7454 Y18.4893 F120.00
G01 X0.6921 Y18.4642 F120.00
G01 X0.6416 Y18.4339 F120.00
G01 X0.5944 Y18.3988 F120.00
G01 X0.5507 Y18.3593 F120.00
G01 X0.5112 Y18.3156 F120.00
G01 X0.4761 Y18.2684 F120.00
G01 X0.4458 Y18.2179 F120.00
G01 X0.4207 Y18.1646 F120.00
G01 X0.4008 Y18.1092 F120.00
G01 X0.3865 Y18.0521 F120.00
G01 X0.3779 Y17.9938 F120.00
G01 X0.3750 Y17.9350 F120.00
G01 X0.3750 Y10.5010 F120.00
G00 X0.3750 Y10.5010
G01 F60.00
G01 Z-1.8000
G01 F120.00
G01 X0.3750 Y17.9350 F120.00
G01 X0.3779 Y17.9938 F120.00
G01 X0.3865 Y18.0521 F120.00
G01 X0.4008 Y18.1092 F120.00
G01 X0.4207 Y18.1646 F120.00
G01 X0.4458 Y18.2179 F120.00
G01 X0.4761 Y18.2684 F120.00
G01 X0.5112 Y18.3156 F120.00
G01 X0.5507 Y18.3593 F120.00
G01 X0.5944 Y18.3988 F120.00
G01 X0.6416 Y18.4339 F120.00
G01 X0.6921 Y18.4642 F120.00
G01 X0.7454 Y18.4893 F120.00
G01 X0.8008 Y18.5092 F120.00
G01 X0.8579 Y18.5235 F120.00
G01 X0.9162 Y18.5321 F120.00
G01 X0.9750 Y18.5350 F120.00
G01 X14.3875 Y18.5350 F120.00
G00 X14.3875 Y18.5350
G01 F60.00
G01 Z-1.8500
G01 F120.00
G01 X0.9750 Y18.5350 F120.00
G01 X0.9162 Y18.5321 F120.00
G01 X0.8579 Y18.5235 F120.00
G01 X0.8008 Y18.5092 F120.00
G01 X0.7454 Y18.4893 F120.00
G01 X0.6921 Y18.4642 F120.00
G01 X0.6416 Y18.4339 F120.00
G01 X0.5944 Y18.3988 F120.00
G01 X0.5507 Y18.3593 F120.00
G01 X0.5112 Y18.3156 F120.00
G01 X0.4761 Y18.2684 F120.00
G01 X0.4458 Y18.2179 F120.00
G01 X0.4207 Y18.1646 F120.00
G01 X0.4008 Y18.1092 F120.00
G01 X0.3865 Y18.0521 F120.00
G01 X0.3779 Y17.9938 F120.00
G01 X0.3750 Y17.9350 F120.00
G01 X0.3750 Y10.5010 F120.00
G00 Z0.5000
G00 X16.3875 Y18.5350
G01 F60.00
G01 Z-0.6000
G01 F120.00
G01 X29.6000 Y18.5350 F120.00
G01 X29.6588 Y18.5321 F120.00
G01 X29.7171 Y18.5235 F120.00
G01 X29.7742 Y18.5092 F120.00
G01 X29.8296 Y18.4893 F120.00
G01 X29.8829 Y18.4642 F120.00
G01 X29.9334 Y18.4339 F120.00
G01 X29.9806 Y18.3988 F120.00
G01 X30.0243 Y18.3593 F120.00
G01 X30.0638 Y18.3156 F120.00
G01 X30.0989 Y18.2684 F120.00
G01 X30.1292 Y18.2179 F120.00
G01 X30.1543 Y18.1646 F120.00
G01 X30.1742 Y18.1092 F120.00
G01 X30.1885 Y18.0521 F120.00
G01 X30.1971 Y17.9938 F120.00
G01 X30.2000 Y17.9350 F120.00
G01 X30.2000 Y10.5010 F120.00
G00 X30.2000 Y10.5010
G01 F60.00
G01 Z-1.2000
G01 F120.00
G01 X30.2000 Y17.9350 F120.00
G01 X30.1971 Y17.9938 F120.00
G01 X30.1885 Y18.0521 F120.00
G01 X30.1742 Y18.1092 F120.00
G01 X30.1543 Y18.1646 F120.00
G01 X30.1292 Y18.2179 F120.00
G01 X30.0989 Y18.2684 F120.00
G01 X30.0638 Y18.3156 F120.00
G01 X30.0243 Y18.3593 F120.00
G01 X29.9806 Y18.3988 F120.00
G01 X29.9334 Y18.4339 F120.00
G01 X29.8829 Y18.4642 F120.00
G01 X29.8296 Y18.4893 F120.00
G01 X29.7742 Y18.5092 F120.00
G01 X29.7171 Y18.5235 F120.00
G01 X29.6588 Y18.5321 F120.00
G01 X29.6000 Y18.5350 F120.00
G01 X16.3875 Y18.5350 F120.00
G00 X16.3875 Y18.5350
G01 F60.00
G01 Z-1.8000
G01 F120.00
G01 X29.6000 Y18.5350 F120.00
G01 X29.6588 Y18.5321 F120.00
G01 X29.7171 Y18.5235 F120.00
G01 X29.7742 Y18.5092 F120.00
G01 X29.8296 Y18.4893 F120.00
G01 X29.8829 Y18.4642 F120.00
G01 X29.9334 Y18.4339 F120.00
G01 X29.9806 Y18.3988 F120.00
G01 X30.0243 Y18.3593 F120.00
G01 X30.0638 Y18.3156 F120.00
G01 X30.0989 Y18.2684 F120.00
G01 X30.1292 Y18.2179 F120.00
G01 X30.1543 Y18.1646 F120.00
G01 X30.1742 Y18.1092 F120.00
G01 X30.1885 Y18.0521 F120.00
G01 X30.1971 Y17.9938 F120.00
G01 X30.2000 Y17.9350 F120.00
G01 X30.2000 Y10.5010 F120.00
G00 X30.2000 Y10.5010
G01 F60.00
G01 Z-1.8500
G01 F120.00
G01 X30.2000 Y17.9350 F120.00
G01 X30.1971 Y17.9938 F120.00
G01 X30.1885 Y18.0521 F120.00
G01 X30.1742 Y18.1092 F120.00
G01 X30.1543 Y18.1646 F120.00
G01 X30.1292 Y18.2179 F120.00
G01 X30.0989 Y18.2684 F120.00
G01 X30.0638 Y18.3156 F120.00
G01 X30.0243 Y18.3593 F120.00
G01 X29.9806 Y18.3988 F120.00
G01 X29.9334 Y18.4339 F120.00
G01 X29.8829 Y18.4642 F120.00
G01 X29.8296 Y18.4893 F120.00
G01 X29.7742 Y18.5092 F120.00
G01 X29.7171 Y18.5235 F120.00
G01 X29.6588 Y18.5321 F120.00
G01 X29.6000 Y18.5350 F120.00
G01 X16.3875 Y18.5350 F120.00
G00 Z0.5000
G00 X30.2000 Y8.5010
G01 F60.00
G01 Z-0.6000
G01 F120.00
G01 X30.2000 Y0.8670 F120.00
G01 X30.1971 Y0.8082 F120.00
G01 X30.1885 Y0.7499 F120.00
G01 X30.1742 Y0.6928 F120.00
G01 X30.1543 Y0.6374 F120.00
G01 X30.1292 Y0.5841 F120.00
G01 X30.0989 Y0.5336 F120.00
G01 X30.0638 Y0.4864 F120.00
G01 X30.0243 Y0.4427 F120.00
G01 X29.9806 Y0.4032 F120.00
G01 X29.9334 Y0.3681 F120.00
G01 X29.8829 Y0.3378 F120.00
G01 X29.8296 Y0.3127 F120.00
G01 X29.7742 Y0.2928 F120.00
G01 X29.7171 Y0.2785 F120.00
G01 X29.6588 Y0.2699 F120.00
G01 X29.6000 Y0.2670 F120.00
G00 X29.6000 Y0.2670
G01 F60.00
G01 Z-1.2000
G01 F120.00
G01 X29.6588 Y0.2699 F120.00
G01 X29.7171 Y0.2785 F120.00
G01 X29.7742 Y0.2928 F120.00
G01 X29.8296 Y0.3127 F120.00
G01 X29.8829 Y0.3378 F120.00
G01 X29.9334 Y0.3681 F120.00
G01 X29.9806 Y0.4032 F120.00
G01 X30.0243 Y0.4427 F120.00
G01 X30.0638 Y0.4864 F120.00
G01 X30.0989 Y0.5336 F120.00
G01 X30.1292 Y0.5841 F120.00
G01 X30.1543 Y0.6374 F120.00
G01 X30.1742 Y0.6928 F120.00
G01 X30.1885 Y0.7499 F120.00
G01 X30.1971 Y0.8082 F120.00
G01 X30.2000 Y0.8670 F120.00
G01 X30.2000 Y8.5010 F120.00
G00 X30.2000 Y8.5010
G01 F60.00
G01 Z-1.8000
G01 F120.00
G01 X30.2000 Y0.8670 F120.00
G01 X30.1971 Y0.8082 F120.00
G01 X30.1885 Y0.7499 F120.00
G01 X30.1742 Y0.6928 F120.00
G01 X30.1543 Y0.6374 F120.00
G01 X30.1292 Y0.5841 F120.00
G01 X30.0989 Y0.5336 F120.00
G01 X30.0638 Y0.4864 F120.00
G01 X30.0243 Y0.4427 F120.00
G01 X29.9806 Y0.4032 F120.00
G01 X29.9334 Y0.3681 F120.00
G01 X29.8829 Y0.3378 F120.00
G01 X29.8296 Y0.3127 F120.00
G01 X29.7742 Y0.2928 F120.00
G01 X29.7171 Y0.2785 F120.00
G01 X29.6588 Y0.2699 F120.00
G01 X29.6000 Y0.2670 F120.00
G00 X29.6000 Y0.2670
G01 F60.00
G01 Z-1.8500
G01 F120.00
G01 X29.6588 Y0.2699 F120.00
G01 X29.7171 Y0.2785 F120.00
G01 X29.7742 Y0.2928 F120.00
G01 X29.8296 Y0.3127 F120.00
G01 X29.8829 Y0.3378 F120.00
G01 X29.9334 Y0.3681 F120.00
G01 X29.9806 Y0.4032 F120.00
G01 X30.0243 Y0.4427 F120.00
G01 X30.0638 Y0.4864 F120.00
G01 X30.0989 Y0.5336 F120.00
G01 X30.1292 Y0.5841 F120.00
G01 X30.1543 Y0.6374 F120.00
G01 X30.1742 Y0.6928 F120.00
G01 X30.1885 Y0.7499 F120.00
G01 X30.1971 Y0.8082 F120.00
G01 X30.2000 Y0.8670 F120.00
G01 X30.2000 Y8.5010 F120.00
G00 Z0.5000
G00 X29.6000 Y0.2670
G01 F60.00
G01 Z-0.6000
G01 F120.00
G01 X16.3875 Y0.2670 F120.00
G00 X16.3875 Y0.2670
G01 F60.00
G01 Z-1.2000
G01 F120.00
G01 X29.6000 Y0.2670 F120.00
G00 X29.6000 Y0.2670
G01 F60.00
G01 Z-1.8000
G01 F120.00
G01 X16.3875 Y0.2670 F120.00
G00 X16.3875 Y0.2670
G01 F60.00
G01 Z-1.8500
G01 F120.00
G01 X29.6000 Y0.2670 F120.00
G00 Z0.5000
M05
G00 Z0.5000
G00 Z20.00
G00 X0.0 Y0.0

