(G-CODE GENERATED BY FLATCAM v8.993 - www.flatcam.org - Version Date: 2020/08/01)

(Name: quick reset-B_Cu.gbr_iso_cnc)
(Type: G-code from Geometry)
(Units: MM)

(Created on Saturday, 14 November 2020 at 17:37)

(This preprocessor is used with a motion controller loaded with GRBL firmware.)
(It is configured to be compatible with almost any version of GRBL firmware.)

(TOOL DIAMETER: 0.1282 mm)
(Feedrate_XY: 120.0 mm/min)
(Feedrate_Z: 60.0 mm/min)
(Feedrate rapids 1500.0 mm/min)

(Z_Cut: -0.08 mm)
(Z_Move: 0.5 mm)
(Z Start: None mm)
(Z End: 20.0 mm)
(Steps per circle: 64)
(Preprocessor Geometry: grbl_11)

(X range:    1.5432 ...   29.1708  mm)
(Y range:    1.2962 ...   17.6078  mm)

(Spindle Speed: 10000 RPM)
G21
G90
G17
G94




G01 F120.00
G00 Z0.5000

M03 S10000
G00 X3.3950 Y2.1370
G01 F60.00
G01 Z-0.0800
G01 F120.00
G01 X3.7111 Y1.9475 F120.00
G01 X3.7248 Y1.9401 F120.00
G01 X4.0712 Y1.7761 F120.00
G01 X4.0885 Y1.7690 F120.00
G01 X4.4464 Y1.6409 F120.00
G01 X4.4613 Y1.6363 F120.00
G01 X4.8361 Y1.5424 F120.00
G01 X4.8514 Y1.5395 F120.00
G01 X5.2273 Y1.4837 F120.00
G01 X5.2460 Y1.4819 F120.00
G01 X5.6381 Y1.4628 F120.00
G01 X24.9385 Y1.4629 F120.00
G01 X25.3290 Y1.4819 F120.00
G01 X25.3445 Y1.4833 F120.00
G01 X25.7236 Y1.5395 F120.00
G01 X25.7420 Y1.5431 F120.00
G01 X26.1137 Y1.6363 F120.00
G01 X26.1286 Y1.6409 F120.00
G01 X26.4865 Y1.7690 F120.00
G01 X26.5038 Y1.7761 F120.00
G01 X26.8502 Y1.9401 F120.00
G01 X26.8639 Y1.9475 F120.00
G01 X27.1899 Y2.1429 F120.00
G01 X27.2029 Y2.1515 F120.00
G01 X27.5108 Y2.3797 F120.00
G01 X27.5253 Y2.3916 F120.00
G01 X27.8069 Y2.6468 F120.00
G01 X27.8180 Y2.6578 F120.00
G01 X28.0754 Y2.9417 F120.00
G01 X28.0873 Y2.9562 F120.00
G01 X28.3155 Y3.2641 F120.00
G01 X28.3241 Y3.2771 F120.00
G01 X28.5195 Y3.6031 F120.00
G01 X28.5269 Y3.6168 F120.00
G01 X28.6909 Y3.9632 F120.00
G01 X28.6980 Y3.9805 F120.00
G01 X28.8261 Y4.3384 F120.00
G01 X28.8307 Y4.3533 F120.00
G01 X28.9239 Y4.7250 F120.00
G01 X28.9275 Y4.7434 F120.00
G01 X28.9835 Y5.1209 F120.00
G01 X28.9851 Y5.1380 F120.00
G01 X29.0042 Y5.5301 F120.00
G01 X29.0039 Y13.4083 F120.00
G01 X28.9851 Y13.7910 F120.00
G01 X28.9833 Y13.8097 F120.00
G01 X28.9275 Y14.1856 F120.00
G01 X28.9246 Y14.2009 F120.00
G01 X28.8315 Y14.5727 F120.00
G01 X28.8261 Y14.5906 F120.00
G01 X28.6969 Y14.9514 F120.00
G01 X28.6909 Y14.9658 F120.00
G01 X28.5269 Y15.3122 F120.00
G01 X28.5195 Y15.3259 F120.00
G01 X28.3241 Y15.6519 F120.00
G01 X28.3155 Y15.6649 F120.00
G01 X28.0873 Y15.9728 F120.00
G01 X28.0754 Y15.9873 F120.00
G01 X27.8202 Y16.2689 F120.00
G01 X27.8092 Y16.2800 F120.00
G01 X27.5253 Y16.5374 F120.00
G01 X27.5108 Y16.5493 F120.00
G01 X27.2029 Y16.7775 F120.00
G01 X27.1899 Y16.7861 F120.00
G01 X26.8639 Y16.9815 F120.00
G01 X26.8502 Y16.9889 F120.00
G01 X26.5038 Y17.1529 F120.00
G01 X26.4865 Y17.1600 F120.00
G01 X26.1286 Y17.2881 F120.00
G01 X26.1107 Y17.2935 F120.00
G01 X25.7389 Y17.3866 F120.00
G01 X25.7236 Y17.3895 F120.00
G01 X25.3894 Y17.4391 F120.00
G01 X25.3747 Y17.4407 F120.00
G01 X25.3614 Y17.4412 F120.00
G01 X13.6627 Y17.4412 F120.00
G01 X13.6440 Y17.4402 F120.00
G01 X13.6223 Y17.4368 F120.00
G01 X13.6072 Y17.4329 F120.00
G01 X13.5925 Y17.4277 F120.00
G01 X13.5726 Y17.4186 F120.00
G01 X13.5565 Y17.4089 F120.00
G01 X13.5390 Y17.3957 F120.00
G01 X13.5275 Y17.3852 F120.00
G01 X13.5170 Y17.3737 F120.00
G01 X13.5037 Y17.3562 F120.00
G01 X13.4927 Y17.3373 F120.00
G01 X13.4861 Y17.3232 F120.00
G01 X13.4807 Y17.3085 F120.00
G01 X13.4752 Y17.2873 F120.00
G01 X13.4722 Y17.2656 F120.00
G01 X13.4715 Y17.2500 F120.00
G01 X13.4729 Y17.2266 F120.00
G01 X13.4729 Y15.5454 F120.00
G01 X13.4634 Y15.4490 F120.00
G01 X13.4380 Y15.3653 F120.00
G01 X13.3968 Y15.2882 F120.00
G01 X13.3414 Y15.2206 F120.00
G01 X13.2738 Y15.1652 F120.00
G01 X13.1967 Y15.1240 F120.00
G01 X13.1406 Y15.1069 F120.00
G01 X13.1216 Y15.0998 F120.00
G01 X13.1075 Y15.0931 F120.00
G01 X13.0941 Y15.0851 F120.00
G01 X13.0763 Y15.0723 F120.00
G01 X13.0624 Y15.0597 F120.00
G01 X13.0498 Y15.0458 F120.00
G01 X13.0387 Y15.0307 F120.00
G01 X13.0290 Y15.0146 F120.00
G01 X13.0210 Y14.9976 F120.00
G01 X13.0147 Y14.9800 F120.00
G01 X13.0101 Y14.9618 F120.00
G01 X13.0074 Y14.9432 F120.00
G01 X13.0065 Y14.9245 F120.00
G01 X13.0071 Y14.9089 F120.00
G01 X13.0096 Y14.8903 F120.00
G01 X13.0108 Y14.8841 F120.00
G01 X13.0147 Y14.8690 F120.00
G01 X13.0210 Y14.8513 F120.00
G01 X13.0290 Y14.8344 F120.00
G01 X13.0387 Y14.8183 F120.00
G01 X13.0498 Y14.8032 F120.00
G01 X13.0613 Y14.7904 F120.00
G01 X13.1810 Y14.6708 F120.00
G01 X13.2881 Y14.5104 F120.00
G01 X13.3014 Y14.4930 F120.00
G01 X13.3119 Y14.4814 F120.00
G01 X13.3270 Y14.4679 F120.00
G01 X13.3422 Y14.4568 F120.00
G01 X13.3598 Y14.4466 F120.00
G01 X13.3739 Y14.4400 F120.00
G01 X13.3886 Y14.4347 F120.00
G01 X13.4067 Y14.4298 F120.00
G01 X13.4268 Y14.4265 F120.00
G01 X13.4439 Y14.4255 F120.00
G01 X13.4643 Y14.4262 F120.00
G01 X13.4828 Y14.4288 F120.00
G01 X13.5026 Y14.4337 F120.00
G01 X13.5188 Y14.4394 F120.00
G01 X13.5372 Y14.4480 F120.00
G01 X13.5533 Y14.4577 F120.00
G01 X13.5684 Y14.4688 F120.00
G01 X13.5811 Y14.4803 F120.00
G01 X13.5949 Y14.4953 F120.00
G01 X13.6060 Y14.5104 F120.00
G01 X13.6157 Y14.5265 F120.00
G01 X13.6243 Y14.5449 F120.00
G01 X13.6300 Y14.5611 F120.00
G01 X13.6342 Y14.5778 F120.00
G01 X13.6561 Y14.6876 F120.00
G01 X13.7423 Y14.8958 F120.00
G01 X13.8675 Y15.0832 F120.00
G01 X14.0268 Y15.2425 F120.00
G01 X14.2142 Y15.3677 F120.00
G01 X14.4224 Y15.4539 F120.00
G01 X14.6433 Y15.4978 F120.00
G01 X14.8687 Y15.4978 F120.00
G01 X15.0896 Y15.4539 F120.00
G01 X15.2978 Y15.3677 F120.00
G01 X15.4852 Y15.2425 F120.00
G01 X15.6445 Y15.0832 F120.00
G01 X15.7697 Y14.8958 F120.00
G01 X15.8559 Y14.6876 F120.00
G01 X15.8694 Y14.6197 F120.00
G01 X15.8736 Y14.6031 F120.00
G01 X15.8800 Y14.5854 F120.00
G01 X15.8880 Y14.5684 F120.00
G01 X15.8976 Y14.5524 F120.00
G01 X15.9088 Y14.5373 F120.00
G01 X15.9203 Y14.5245 F120.00
G01 X18.1390 Y12.3058 F120.00
G01 X18.1529 Y12.2932 F120.00
G01 X18.1679 Y12.2821 F120.00
G01 X18.1840 Y12.2724 F120.00
G01 X18.2024 Y12.2638 F120.00
G01 X18.2186 Y12.2581 F120.00
G01 X18.2368 Y12.2535 F120.00
G01 X18.2554 Y12.2508 F120.00
G01 X18.2726 Y12.2499 F120.00
G01 X18.5186 Y12.2499 F120.00
G01 X18.5389 Y12.2511 F120.00
G01 X18.5543 Y12.2535 F120.00
G01 X18.5710 Y12.2576 F120.00
G01 X18.5872 Y12.2633 F120.00
G01 X18.5930 Y12.2657 F120.00
G01 X18.6071 Y12.2724 F120.00
G01 X18.6232 Y12.2821 F120.00
G01 X18.6383 Y12.2932 F120.00
G01 X18.7016 Y12.3452 F120.00
G01 X18.9177 Y12.4607 F120.00
G01 X19.1522 Y12.5318 F120.00
G01 X19.3349 Y12.5498 F120.00
G01 X20.2571 Y12.5498 F120.00
G01 X20.3884 Y12.5369 F120.00
G01 X20.4056 Y12.5361 F120.00
G01 X20.4243 Y12.5371 F120.00
G01 X20.4429 Y12.5398 F120.00
G01 X20.4580 Y12.5435 F120.00
G01 X20.4787 Y12.5507 F120.00
G01 X20.4984 Y12.5603 F120.00
G01 X20.5118 Y12.5684 F120.00
G01 X20.5268 Y12.5795 F120.00
G01 X20.5407 Y12.5921 F120.00
G01 X20.5513 Y12.6036 F120.00
G01 X20.5645 Y12.6211 F120.00
G01 X20.5756 Y12.6400 F120.00
G01 X20.5822 Y12.6541 F120.00
G01 X20.5880 Y12.6703 F120.00
G01 X20.5931 Y12.6900 F120.00
G01 X20.5960 Y12.7117 F120.00
G01 X20.5967 Y12.7273 F120.00
G01 X20.5960 Y12.7429 F120.00
G01 X20.5931 Y12.7646 F120.00
G01 X20.5875 Y12.7858 F120.00
G01 X20.5822 Y12.8005 F120.00
G01 X20.5756 Y12.8146 F120.00
G01 X20.5645 Y12.8335 F120.00
G01 X20.5523 Y12.8498 F120.00
G01 X20.5407 Y12.8625 F120.00
G01 X19.8339 Y13.5693 F120.00
G01 X19.8200 Y13.5819 F120.00
G01 X19.8049 Y13.5931 F120.00
G01 X19.7888 Y13.6027 F120.00
G01 X19.7719 Y13.6108 F120.00
G01 X19.7527 Y13.6175 F120.00
G01 X19.7360 Y13.6216 F120.00
G01 X19.5132 Y13.6660 F120.00
G01 X19.2868 Y13.7597 F120.00
G01 X19.0831 Y13.8958 F120.00
G01 X18.9098 Y14.0691 F120.00
G01 X18.7737 Y14.2728 F120.00
G01 X18.6800 Y14.4992 F120.00
G01 X18.6322 Y14.7395 F120.00
G01 X18.6322 Y14.9845 F120.00
G01 X18.6460 Y15.0538 F120.00
G01 X19.3898 Y15.7977 F120.00
G01 X20.6994 Y15.7977 F120.00
G01 X20.8422 Y15.6549 F120.00
G01 X20.9783 Y15.4512 F120.00
G01 X21.0720 Y15.2248 F120.00
G01 X21.1164 Y15.0020 F120.00
G01 X21.1205 Y14.9853 F120.00
G01 X21.1272 Y14.9661 F120.00
G01 X21.1353 Y14.9492 F120.00
G01 X21.1449 Y14.9331 F120.00
G01 X21.1571 Y14.9168 F120.00
G01 X21.1687 Y14.9041 F120.00
G01 X22.9640 Y13.1088 F120.00
G01 X22.9767 Y13.0972 F120.00
G01 X23.0066 Y13.0726 F120.00
G01 X23.1246 Y12.9289 F120.00
G01 X23.2122 Y12.7649 F120.00
G01 X23.2662 Y12.5870 F120.00
G01 X23.2806 Y12.4418 F120.00
G01 X23.2829 Y12.4263 F120.00
G01 X23.2866 Y12.4112 F120.00
G01 X23.2938 Y12.3905 F120.00
G01 X23.3018 Y12.3735 F120.00
G01 X23.3115 Y12.3574 F120.00
G01 X23.3226 Y12.3424 F120.00
G01 X23.3331 Y12.3307 F120.00
G01 X23.3468 Y12.3179 F120.00
G01 X23.3516 Y12.3139 F120.00
G01 X23.3642 Y12.3047 F120.00
G01 X23.3817 Y12.2943 F120.00
G01 X23.3987 Y12.2864 F120.00
G01 X23.4180 Y12.2799 F120.00
G01 X23.4331 Y12.2762 F120.00
G01 X23.4486 Y12.2738 F120.00
G01 X23.4688 Y12.2725 F120.00
G01 X23.4892 Y12.2734 F120.00
G01 X23.5077 Y12.2762 F120.00
G01 X23.5259 Y12.2807 F120.00
G01 X23.5465 Y12.2883 F120.00
G01 X23.5605 Y12.2951 F120.00
G01 X23.5766 Y12.3047 F120.00
G01 X23.5917 Y12.3159 F120.00
G01 X23.6067 Y12.3296 F120.00
G01 X23.6182 Y12.3424 F120.00
G01 X23.6294 Y12.3574 F120.00
G01 X23.6383 Y12.3721 F120.00
G01 X23.6552 Y12.4038 F120.00
G01 X23.7106 Y12.4714 F120.00
G01 X23.7782 Y12.5268 F120.00
G01 X23.8553 Y12.5680 F120.00
G01 X23.9390 Y12.5934 F120.00
G01 X24.0354 Y12.6029 F120.00
G01 X25.7166 Y12.6029 F120.00
G01 X25.8130 Y12.5934 F120.00
G01 X25.8967 Y12.5680 F120.00
G01 X25.9738 Y12.5268 F120.00
G01 X26.0414 Y12.4714 F120.00
G01 X26.0968 Y12.4038 F120.00
G01 X26.1380 Y12.3267 F120.00
G01 X26.1634 Y12.2430 F120.00
G01 X26.1729 Y12.1466 F120.00
G01 X26.1729 Y10.4654 F120.00
G01 X26.1634 Y10.3690 F120.00
G01 X26.1380 Y10.2853 F120.00
G01 X26.0968 Y10.2082 F120.00
G01 X26.0414 Y10.1406 F120.00
G01 X25.9738 Y10.0852 F120.00
G01 X25.9209 Y10.0569 F120.00
G01 X25.9061 Y10.0481 F120.00
G01 X25.8897 Y10.0361 F120.00
G01 X25.8737 Y10.0212 F120.00
G01 X25.8632 Y10.0096 F120.00
G01 X25.8521 Y9.9945 F120.00
G01 X25.8424 Y9.9784 F120.00
G01 X25.8357 Y9.9643 F120.00
G01 X25.8333 Y9.9585 F120.00
G01 X25.8272 Y9.9408 F120.00
G01 X25.8235 Y9.9256 F120.00
G01 X25.8208 Y9.9071 F120.00
G01 X25.8198 Y9.8883 F120.00
G01 X25.8198 Y6.2817 F120.00
G01 X25.8206 Y6.2646 F120.00
G01 X25.8244 Y6.2260 F120.00
G01 X25.8062 Y6.0410 F120.00
G01 X25.7522 Y5.8631 F120.00
G01 X25.6646 Y5.6991 F120.00
G01 X25.5466 Y5.5554 F120.00
G01 X25.5167 Y5.5308 F120.00
G01 X25.5040 Y5.5192 F120.00
G01 X23.4992 Y3.5143 F120.00
G01 X23.4888 Y3.5027 F120.00
G01 X23.4776 Y3.4876 F120.00
G01 X23.4680 Y3.4716 F120.00
G01 X23.4600 Y3.4546 F120.00
G01 X23.4536 Y3.4369 F120.00
G01 X23.4494 Y3.4203 F120.00
G01 X23.4359 Y3.3524 F120.00
G01 X23.3497 Y3.1442 F120.00
G01 X23.2245 Y2.9568 F120.00
G01 X23.0652 Y2.7975 F120.00
G01 X22.8778 Y2.6723 F120.00
G01 X22.6696 Y2.5861 F120.00
G01 X22.4487 Y2.5422 F120.00
G01 X22.2233 Y2.5422 F120.00
G01 X22.0024 Y2.5861 F120.00
G01 X21.7942 Y2.6723 F120.00
G01 X21.7379 Y2.7099 F120.00
G01 X21.7218 Y2.7196 F120.00
G01 X21.7049 Y2.7276 F120.00
G01 X21.6902 Y2.7329 F120.00
G01 X21.6842 Y2.7348 F120.00
G01 X21.6675 Y2.7388 F120.00
G01 X21.6504 Y2.7412 F120.00
G01 X21.6317 Y2.7422 F120.00
G01 X21.0750 Y2.7422 F120.00
G01 X21.0594 Y2.7415 F120.00
G01 X21.0377 Y2.7385 F120.00
G01 X21.0195 Y2.7339 F120.00
G01 X21.0018 Y2.7276 F120.00
G01 X20.9849 Y2.7196 F120.00
G01 X20.9688 Y2.7099 F120.00
G01 X20.9550 Y2.6998 F120.00
G01 X20.8904 Y2.6468 F120.00
G01 X20.6743 Y2.5313 F120.00
G01 X20.4398 Y2.4602 F120.00
G01 X20.2571 Y2.4422 F120.00
G01 X19.3349 Y2.4422 F120.00
G01 X19.1522 Y2.4602 F120.00
G01 X18.9177 Y2.5313 F120.00
G01 X18.7016 Y2.6468 F120.00
G01 X18.5122 Y2.8022 F120.00
G01 X18.3568 Y2.9916 F120.00
G01 X18.2413 Y3.2077 F120.00
G01 X18.1702 Y3.4422 F120.00
G01 X18.1461 Y3.6860 F120.00
G01 X18.1657 Y3.8844 F120.00
G01 X18.1665 Y3.9016 F120.00
G01 X18.1655 Y3.9203 F120.00
G01 X18.1628 Y3.9389 F120.00
G01 X18.1591 Y3.9540 F120.00
G01 X18.1530 Y3.9718 F120.00
G01 X18.1506 Y3.9776 F120.00
G01 X18.1439 Y3.9917 F120.00
G01 X18.1342 Y4.0078 F120.00
G01 X18.1231 Y4.0229 F120.00
G01 X18.1126 Y4.0345 F120.00
G01 X13.9567 Y8.1905 F120.00
G01 X13.9415 Y8.2039 F120.00
G01 X13.9289 Y8.2131 F120.00
G01 X13.9155 Y8.2212 F120.00
G01 X13.8958 Y8.2308 F120.00
G01 X13.8782 Y8.2371 F120.00
G01 X13.8600 Y8.2417 F120.00
G01 X13.8383 Y8.2447 F120.00
G01 X13.8195 Y8.2453 F120.00
G01 X13.8039 Y8.2444 F120.00
G01 X13.7885 Y8.2422 F120.00
G01 X13.7823 Y8.2410 F120.00
G01 X13.7642 Y8.2361 F120.00
G01 X13.7495 Y8.2308 F120.00
G01 X13.7326 Y8.2228 F120.00
G01 X13.7165 Y8.2131 F120.00
G01 X13.7039 Y8.2039 F120.00
G01 X13.6898 Y8.1915 F120.00
G01 X13.6853 Y8.1871 F120.00
G01 X13.6739 Y8.1742 F120.00
G01 X13.6620 Y8.1577 F120.00
G01 X13.6541 Y8.1443 F120.00
G01 X13.6152 Y8.0716 F120.00
G01 X13.4598 Y7.8822 F120.00
G01 X13.2704 Y7.7268 F120.00
G01 X13.1513 Y7.6630 F120.00
G01 X13.1379 Y7.6549 F120.00
G01 X13.1253 Y7.6457 F120.00
G01 X13.1101 Y7.6323 F120.00
G01 X13.0984 Y7.6197 F120.00
G01 X13.0944 Y7.6148 F120.00
G01 X13.0852 Y7.6022 F120.00
G01 X13.0756 Y7.5861 F120.00
G01 X13.0675 Y7.5692 F120.00
G01 X13.0622 Y7.5545 F120.00
G01 X13.0604 Y7.5485 F120.00
G01 X13.0564 Y7.5317 F120.00
G01 X13.0537 Y7.5116 F120.00
G01 X13.0530 Y7.4960 F120.00
G01 X13.0537 Y7.4804 F120.00
G01 X13.0567 Y7.4587 F120.00
G01 X13.0612 Y7.4405 F120.00
G01 X13.0675 Y7.4228 F120.00
G01 X13.0771 Y7.4031 F120.00
G01 X13.0852 Y7.3898 F120.00
G01 X13.0944 Y7.3772 F120.00
G01 X13.1068 Y7.3631 F120.00
G01 X13.1112 Y7.3587 F120.00
G01 X13.1241 Y7.3472 F120.00
G01 X13.1379 Y7.3371 F120.00
G01 X13.1513 Y7.3290 F120.00
G01 X13.2704 Y7.2652 F120.00
G01 X13.4598 Y7.1098 F120.00
G01 X13.6152 Y6.9204 F120.00
G01 X13.7307 Y6.7043 F120.00
G01 X13.8018 Y6.4698 F120.00
G01 X13.8259 Y6.2260 F120.00
G01 X13.8018 Y5.9822 F120.00
G01 X13.7307 Y5.7477 F120.00
G01 X13.6152 Y5.5316 F120.00
G01 X13.4598 Y5.3422 F120.00
G01 X13.2704 Y5.1868 F120.00
G01 X13.0543 Y5.0713 F120.00
G01 X12.8198 Y5.0002 F120.00
G01 X12.6371 Y4.9822 F120.00
G01 X11.7149 Y4.9822 F120.00
G01 X11.5322 Y5.0002 F120.00
G01 X11.2977 Y5.0713 F120.00
G01 X11.0816 Y5.1868 F120.00
G01 X11.0170 Y5.2398 F120.00
G01 X11.0032 Y5.2499 F120.00
G01 X10.9871 Y5.2596 F120.00
G01 X10.9702 Y5.2676 F120.00
G01 X10.9525 Y5.2739 F120.00
G01 X10.9343 Y5.2785 F120.00
G01 X10.9126 Y5.2815 F120.00
G01 X10.8970 Y5.2822 F120.00
G01 X10.3403 Y5.2822 F120.00
G01 X10.3216 Y5.2812 F120.00
G01 X10.3045 Y5.2788 F120.00
G01 X10.2878 Y5.2748 F120.00
G01 X10.2818 Y5.2729 F120.00
G01 X10.2671 Y5.2676 F120.00
G01 X10.2502 Y5.2596 F120.00
G01 X10.2341 Y5.2499 F120.00
G01 X10.1778 Y5.2123 F120.00
G01 X9.9696 Y5.1261 F120.00
G01 X9.7487 Y5.0822 F120.00
G01 X9.5233 Y5.0822 F120.00
G01 X9.3024 Y5.1261 F120.00
G01 X9.0942 Y5.2123 F120.00
G01 X9.0366 Y5.2508 F120.00
G01 X9.0218 Y5.2596 F120.00
G01 X9.0063 Y5.2670 F120.00
G01 X8.9872 Y5.2739 F120.00
G01 X8.9721 Y5.2778 F120.00
G01 X8.9659 Y5.2790 F120.00
G01 X8.9473 Y5.2815 F120.00
G01 X8.9317 Y5.2822 F120.00
G01 X6.1221 Y5.2822 F120.00
G01 X6.1003 Y5.2809 F120.00
G01 X6.0848 Y5.2785 F120.00
G01 X6.0666 Y5.2739 F120.00
G01 X6.0461 Y5.2663 F120.00
G01 X6.0320 Y5.2596 F120.00
G01 X6.0186 Y5.2516 F120.00
G01 X6.0009 Y5.2388 F120.00
G01 X5.9870 Y5.2262 F120.00
G01 X4.4047 Y3.6439 F120.00
G01 X4.3921 Y3.6300 F120.00
G01 X4.3809 Y3.6149 F120.00
G01 X4.3713 Y3.5988 F120.00
G01 X4.3632 Y3.5819 F120.00
G01 X4.3565 Y3.5627 F120.00
G01 X4.3524 Y3.5460 F120.00
G01 X4.3080 Y3.3232 F120.00
G01 X4.2143 Y3.0968 F120.00
G01 X4.0782 Y2.8931 F120.00
G01 X3.9049 Y2.7198 F120.00
G01 X3.7012 Y2.5837 F120.00
G01 X3.4748 Y2.4900 F120.00
G01 X3.4571 Y2.4864 F120.00
G01 X3.4417 Y2.4825 F120.00
G01 X3.4251 Y2.4767 F120.00
G01 X3.4192 Y2.4743 F120.00
G01 X3.4021 Y2.4657 F120.00
G01 X3.3885 Y2.4573 F120.00
G01 X3.3757 Y2.4478 F120.00
G01 X3.3603 Y2.4339 F120.00
G01 X3.3475 Y2.4197 F120.00
G01 X3.3353 Y2.4029 F120.00
G01 X3.3258 Y2.3863 F120.00
G01 X3.3179 Y2.3688 F120.00
G01 X3.3119 Y2.3506 F120.00
G01 X3.3077 Y2.3320 F120.00
G01 X3.3053 Y2.3129 F120.00
G01 X3.3049 Y2.2938 F120.00
G01 X3.3061 Y2.2779 F120.00
G01 X3.3069 Y2.2715 F120.00
G01 X3.3106 Y2.2528 F120.00
G01 X3.3151 Y2.2375 F120.00
G01 X3.3209 Y2.2226 F120.00
G01 X3.3302 Y2.2041 F120.00
G01 X3.3397 Y2.1893 F120.00
G01 X3.3525 Y2.1730 F120.00
G01 X3.3659 Y2.1593 F120.00
G01 X3.3818 Y2.1460 F120.00
G01 X3.3950 Y2.1370 F120.00
G00 Z0.5000
G00 X2.7843 Y4.4855
G01 F60.00
G01 Z-0.0800
G01 F120.00
G01 X2.7784 Y4.4830 F120.00
G01 X2.7047 Y4.4481 F120.00
G01 X2.6319 Y4.4045 F120.00
G01 X2.5638 Y4.3540 F120.00
G01 X2.5033 Y4.2992 F120.00
G01 X2.4988 Y4.2947 F120.00
G01 X2.4440 Y4.2342 F120.00
G01 X2.3953 Y4.1686 F120.00
G01 X2.3918 Y4.1634 F120.00
G01 X2.3515 Y4.0961 F120.00
G01 X2.3485 Y4.0905 F120.00
G01 X2.3137 Y4.0167 F120.00
G01 X2.2851 Y3.9368 F120.00
G01 X2.2645 Y3.8546 F120.00
G01 X2.2521 Y3.7707 F120.00
G01 X2.2479 Y3.6860 F120.00
G01 X2.2521 Y3.6013 F120.00
G01 X2.2645 Y3.5174 F120.00
G01 X2.2851 Y3.4352 F120.00
G01 X2.3137 Y3.3553 F120.00
G01 X2.3499 Y3.2787 F120.00
G01 X2.3935 Y3.2059 F120.00
G01 X2.4421 Y3.1403 F120.00
G01 X2.4461 Y3.1354 F120.00
G01 X2.4988 Y3.0773 F120.00
G01 X2.5033 Y3.0728 F120.00
G01 X2.5638 Y3.0180 F120.00
G01 X2.6294 Y2.9693 F120.00
G01 X2.6346 Y2.9658 F120.00
G01 X2.7047 Y2.9239 F120.00
G01 X2.7813 Y2.8877 F120.00
G01 X2.8612 Y2.8591 F120.00
G01 X2.9434 Y2.8385 F120.00
G01 X3.0273 Y2.8261 F120.00
G01 X3.1120 Y2.8219 F120.00
G01 X3.1967 Y2.8261 F120.00
G01 X3.2790 Y2.8382 F120.00
G01 X3.3598 Y2.8583 F120.00
G01 X3.3658 Y2.8601 F120.00
G01 X3.4427 Y2.8877 F120.00
G01 X3.5193 Y2.9239 F120.00
G01 X3.5921 Y2.9675 F120.00
G01 X3.6577 Y3.0161 F120.00
G01 X3.6626 Y3.0201 F120.00
G01 X3.7207 Y3.0728 F120.00
G01 X3.7252 Y3.0773 F120.00
G01 X3.7800 Y3.1378 F120.00
G01 X3.8305 Y3.2059 F120.00
G01 X3.8741 Y3.2787 F120.00
G01 X3.9090 Y3.3524 F120.00
G01 X3.9115 Y3.3583 F120.00
G01 X3.9389 Y3.4352 F120.00
G01 X3.9588 Y3.5144 F120.00
G01 X3.9600 Y3.5205 F120.00
G01 X3.9716 Y3.5982 F120.00
G01 X3.9722 Y3.6044 F120.00
G01 X3.9761 Y3.6860 F120.00
G01 X3.9731 Y3.7490 F120.00
G01 X5.8858 Y5.6616 F120.00
G01 X9.1221 Y5.6616 F120.00
G01 X9.1525 Y5.6344 F120.00
G01 X9.2128 Y5.5898 F120.00
G01 X9.2758 Y5.5521 F120.00
G01 X9.3451 Y5.5195 F120.00
G01 X9.4142 Y5.4948 F120.00
G01 X9.4869 Y5.4766 F120.00
G01 X9.5611 Y5.4656 F120.00
G01 X9.6360 Y5.4619 F120.00
G01 X9.7109 Y5.4656 F120.00
G01 X9.7851 Y5.4766 F120.00
G01 X9.8578 Y5.4948 F120.00
G01 X9.9269 Y5.5195 F120.00
G01 X9.9962 Y5.5521 F120.00
G01 X10.0592 Y5.5898 F120.00
G01 X10.1195 Y5.6344 F120.00
G01 X10.1499 Y5.6616 F120.00
G01 X11.1226 Y5.6616 F120.00
G01 X11.1650 Y5.6150 F120.00
G01 X11.2278 Y5.5580 F120.00
G01 X11.2959 Y5.5075 F120.00
G01 X11.3659 Y5.4655 F120.00
G01 X11.3715 Y5.4625 F120.00
G01 X11.4424 Y5.4290 F120.00
G01 X11.4483 Y5.4265 F120.00
G01 X11.5252 Y5.3991 F120.00
G01 X11.6074 Y5.3785 F120.00
G01 X11.6913 Y5.3661 F120.00
G01 X11.7760 Y5.3619 F120.00
G01 X12.5760 Y5.3619 F120.00
G01 X12.6607 Y5.3661 F120.00
G01 X12.7446 Y5.3785 F120.00
G01 X12.8268 Y5.3991 F120.00
G01 X12.9067 Y5.4277 F120.00
G01 X12.9833 Y5.4639 F120.00
G01 X13.0561 Y5.5075 F120.00
G01 X13.1242 Y5.5580 F120.00
G01 X13.1870 Y5.6150 F120.00
G01 X13.2419 Y5.6754 F120.00
G01 X13.2459 Y5.6803 F120.00
G01 X13.2927 Y5.7434 F120.00
G01 X13.2962 Y5.7486 F120.00
G01 X13.3381 Y5.8187 F120.00
G01 X13.3730 Y5.8924 F120.00
G01 X13.3755 Y5.8983 F120.00
G01 X13.4029 Y5.9752 F120.00
G01 X13.4228 Y6.0544 F120.00
G01 X13.4240 Y6.0605 F120.00
G01 X13.4359 Y6.1413 F120.00
G01 X13.4401 Y6.2260 F120.00
G01 X13.4359 Y6.3107 F120.00
G01 X13.4238 Y6.3930 F120.00
G01 X13.4029 Y6.4768 F120.00
G01 X13.3755 Y6.5537 F120.00
G01 X13.3730 Y6.5596 F120.00
G01 X13.3395 Y6.6305 F120.00
G01 X13.3365 Y6.6361 F120.00
G01 X13.2945 Y6.7061 F120.00
G01 X13.2440 Y6.7742 F120.00
G01 X13.1870 Y6.8370 F120.00
G01 X13.1242 Y6.8940 F120.00
G01 X13.0561 Y6.9445 F120.00
G01 X12.9861 Y6.9865 F120.00
G01 X12.9805 Y6.9895 F120.00
G01 X12.9096 Y7.0230 F120.00
G01 X12.9037 Y7.0255 F120.00
G01 X12.8268 Y7.0529 F120.00
G01 X12.7446 Y7.0735 F120.00
G01 X12.6607 Y7.0859 F120.00
G01 X12.5791 Y7.0900 F120.00
G01 X11.7744 Y7.0901 F120.00
G01 X11.6913 Y7.0859 F120.00
G01 X11.6074 Y7.0735 F120.00
G01 X11.5252 Y7.0529 F120.00
G01 X11.4483 Y7.0255 F120.00
G01 X11.4424 Y7.0230 F120.00
G01 X11.3715 Y6.9895 F120.00
G01 X11.3659 Y6.9865 F120.00
G01 X11.2959 Y6.9445 F120.00
G01 X11.2278 Y6.8940 F120.00
G01 X11.1650 Y6.8370 F120.00
G01 X11.1226 Y6.7904 F120.00
G01 X10.1499 Y6.7904 F120.00
G01 X10.1195 Y6.8176 F120.00
G01 X10.0592 Y6.8622 F120.00
G01 X9.9962 Y6.8999 F120.00
G01 X9.9269 Y6.9325 F120.00
G01 X9.8578 Y6.9572 F120.00
G01 X9.7851 Y6.9754 F120.00
G01 X9.7109 Y6.9864 F120.00
G01 X9.6360 Y6.9901 F120.00
G01 X9.5611 Y6.9864 F120.00
G01 X9.4869 Y6.9754 F120.00
G01 X9.4142 Y6.9572 F120.00
G01 X9.3451 Y6.9325 F120.00
G01 X9.2758 Y6.8999 F120.00
G01 X9.2128 Y6.8622 F120.00
G01 X9.1525 Y6.8176 F120.00
G01 X9.1221 Y6.7904 F120.00
G01 X5.6520 Y6.7904 F120.00
G01 X5.5967 Y6.7876 F120.00
G01 X5.5434 Y6.7798 F120.00
G01 X5.4912 Y6.7669 F120.00
G01 X5.4852 Y6.7651 F120.00
G01 X5.4360 Y6.7474 F120.00
G01 X5.3860 Y6.7237 F120.00
G01 X5.3411 Y6.6969 F120.00
G01 X5.3359 Y6.6934 F120.00
G01 X5.2940 Y6.6622 F120.00
G01 X5.2541 Y6.6262 F120.00
G01 X3.1750 Y4.5471 F120.00
G01 X3.1120 Y4.5501 F120.00
G01 X3.0304 Y4.5462 F120.00
G01 X3.0242 Y4.5456 F120.00
G01 X2.9465 Y4.5340 F120.00
G01 X2.9404 Y4.5328 F120.00
G01 X2.8612 Y4.5129 F120.00
G01 X2.7843 Y4.4855 F120.00
G00 Z0.5000
G00 X2.7562 Y4.5639
G01 F60.00
G01 Z-0.0800
G01 F120.00
G01 X2.7428 Y4.5584 F120.00
G01 X2.6654 Y4.5216 F120.00
G01 X2.5856 Y4.4738 F120.00
G01 X2.5110 Y4.4184 F120.00
G01 X2.4473 Y4.3609 F120.00
G01 X2.4371 Y4.3507 F120.00
G01 X2.3796 Y4.2870 F120.00
G01 X2.3284 Y4.2183 F120.00
G01 X2.3204 Y4.2063 F120.00
G01 X2.2800 Y4.1389 F120.00
G01 X2.2732 Y4.1262 F120.00
G01 X2.2367 Y4.0486 F120.00
G01 X2.2054 Y3.9610 F120.00
G01 X2.1828 Y3.8708 F120.00
G01 X2.1691 Y3.7789 F120.00
G01 X2.1646 Y3.6860 F120.00
G01 X2.1691 Y3.5931 F120.00
G01 X2.1828 Y3.5012 F120.00
G01 X2.2054 Y3.4110 F120.00
G01 X2.2367 Y3.3234 F120.00
G01 X2.2764 Y3.2394 F120.00
G01 X2.3242 Y3.1596 F120.00
G01 X2.3752 Y3.0907 F120.00
G01 X2.3844 Y3.0795 F120.00
G01 X2.4371 Y3.0213 F120.00
G01 X2.4473 Y3.0111 F120.00
G01 X2.5110 Y2.9536 F120.00
G01 X2.5797 Y2.9024 F120.00
G01 X2.5917 Y2.8944 F120.00
G01 X2.6654 Y2.8504 F120.00
G01 X2.7494 Y2.8107 F120.00
G01 X2.8370 Y2.7794 F120.00
G01 X2.9272 Y2.7568 F120.00
G01 X3.0191 Y2.7431 F120.00
G01 X3.1120 Y2.7386 F120.00
G01 X3.2049 Y2.7431 F120.00
G01 X3.2933 Y2.7561 F120.00
G01 X3.3039 Y2.7584 F120.00
G01 X3.3801 Y2.7774 F120.00
G01 X3.3939 Y2.7816 F120.00
G01 X3.4746 Y2.8107 F120.00
G01 X3.5586 Y2.8504 F120.00
G01 X3.6384 Y2.8982 F120.00
G01 X3.7073 Y2.9492 F120.00
G01 X3.7185 Y2.9584 F120.00
G01 X3.7767 Y3.0111 F120.00
G01 X3.7845 Y3.0187 F120.00
G01 X3.8444 Y3.0850 F120.00
G01 X3.8998 Y3.1596 F120.00
G01 X3.9476 Y3.2394 F120.00
G01 X3.9844 Y3.3168 F120.00
G01 X3.9887 Y3.3268 F120.00
G01 X4.0186 Y3.4110 F120.00
G01 X4.0396 Y3.4941 F120.00
G01 X4.0419 Y3.5047 F120.00
G01 X4.0540 Y3.5860 F120.00
G01 X4.0552 Y3.5967 F120.00
G01 X4.0594 Y3.6824 F120.00
G01 X4.0593 Y3.6932 F120.00
G01 X4.0581 Y3.7162 F120.00
G01 X5.9203 Y5.5783 F120.00
G01 X9.0900 Y5.5783 F120.00
G01 X9.0984 Y5.5709 F120.00
G01 X9.1041 Y5.5665 F120.00
G01 X9.1593 Y5.5256 F120.00
G01 X9.1713 Y5.5175 F120.00
G01 X9.2365 Y5.4786 F120.00
G01 X9.3051 Y5.4460 F120.00
G01 X9.3185 Y5.4405 F120.00
G01 X9.3900 Y5.4151 F120.00
G01 X9.4707 Y5.3949 F120.00
G01 X9.5529 Y5.3827 F120.00
G01 X9.6360 Y5.3786 F120.00
G01 X9.7191 Y5.3827 F120.00
G01 X9.8013 Y5.3949 F120.00
G01 X9.8820 Y5.4151 F120.00
G01 X9.9535 Y5.4405 F120.00
G01 X9.9669 Y5.4460 F120.00
G01 X10.0355 Y5.4786 F120.00
G01 X10.1007 Y5.5175 F120.00
G01 X10.1127 Y5.5256 F120.00
G01 X10.1679 Y5.5665 F120.00
G01 X10.1736 Y5.5709 F120.00
G01 X10.1820 Y5.5783 F120.00
G01 X11.0857 Y5.5783 F120.00
G01 X11.1011 Y5.5613 F120.00
G01 X11.1087 Y5.5535 F120.00
G01 X11.1695 Y5.4984 F120.00
G01 X11.1778 Y5.4914 F120.00
G01 X11.2496 Y5.4382 F120.00
G01 X11.3262 Y5.3922 F120.00
G01 X11.3358 Y5.3872 F120.00
G01 X11.4068 Y5.3536 F120.00
G01 X11.4202 Y5.3481 F120.00
G01 X11.5010 Y5.3194 F120.00
G01 X11.5912 Y5.2968 F120.00
G01 X11.6831 Y5.2831 F120.00
G01 X11.7724 Y5.2786 F120.00
G01 X12.5760 Y5.2786 F120.00
G01 X12.6689 Y5.2831 F120.00
G01 X12.7608 Y5.2968 F120.00
G01 X12.8510 Y5.3194 F120.00
G01 X12.9386 Y5.3507 F120.00
G01 X13.0226 Y5.3904 F120.00
G01 X13.1024 Y5.4382 F120.00
G01 X13.1770 Y5.4936 F120.00
G01 X13.2459 Y5.5561 F120.00
G01 X13.3036 Y5.6195 F120.00
G01 X13.3128 Y5.6307 F120.00
G01 X13.3596 Y5.6937 F120.00
G01 X13.3676 Y5.7057 F120.00
G01 X13.4116 Y5.7794 F120.00
G01 X13.4484 Y5.8568 F120.00
G01 X13.4539 Y5.8702 F120.00
G01 X13.4826 Y5.9510 F120.00
G01 X13.5036 Y6.0341 F120.00
G01 X13.5065 Y6.0483 F120.00
G01 X13.5189 Y6.1331 F120.00
G01 X13.5234 Y6.2260 F120.00
G01 X13.5189 Y6.3189 F120.00
G01 X13.5059 Y6.4073 F120.00
G01 X13.5036 Y6.4179 F120.00
G01 X13.4826 Y6.5010 F120.00
G01 X13.4539 Y6.5818 F120.00
G01 X13.4484 Y6.5952 F120.00
G01 X13.4148 Y6.6662 F120.00
G01 X13.4080 Y6.6789 F120.00
G01 X13.3638 Y6.7524 F120.00
G01 X13.3084 Y6.8270 F120.00
G01 X13.2459 Y6.8959 F120.00
G01 X13.1825 Y6.9536 F120.00
G01 X13.1713 Y6.9628 F120.00
G01 X13.1083 Y7.0096 F120.00
G01 X13.0963 Y7.0176 F120.00
G01 X13.0226 Y7.0616 F120.00
G01 X12.9386 Y7.1013 F120.00
G01 X12.8510 Y7.1326 F120.00
G01 X12.7679 Y7.1536 F120.00
G01 X12.7537 Y7.1565 F120.00
G01 X12.6760 Y7.1680 F120.00
G01 X12.6616 Y7.1694 F120.00
G01 X12.5760 Y7.1734 F120.00
G01 X11.7724 Y7.1734 F120.00
G01 X11.6831 Y7.1689 F120.00
G01 X11.5912 Y7.1552 F120.00
G01 X11.5010 Y7.1326 F120.00
G01 X11.4202 Y7.1039 F120.00
G01 X11.4068 Y7.0984 F120.00
G01 X11.3358 Y7.0648 F120.00
G01 X11.3262 Y7.0598 F120.00
G01 X11.2496 Y7.0138 F120.00
G01 X11.1778 Y6.9606 F120.00
G01 X11.1695 Y6.9536 F120.00
G01 X11.1087 Y6.8985 F120.00
G01 X11.1011 Y6.8907 F120.00
G01 X11.0857 Y6.8737 F120.00
G01 X10.1820 Y6.8737 F120.00
G01 X10.1736 Y6.8811 F120.00
G01 X10.1679 Y6.8855 F120.00
G01 X10.1127 Y6.9264 F120.00
G01 X10.1007 Y6.9345 F120.00
G01 X10.0355 Y6.9734 F120.00
G01 X9.9669 Y7.0060 F120.00
G01 X9.9535 Y7.0115 F120.00
G01 X9.8820 Y7.0369 F120.00
G01 X9.8013 Y7.0571 F120.00
G01 X9.7191 Y7.0693 F120.00
G01 X9.6360 Y7.0734 F120.00
G01 X9.5529 Y7.0693 F120.00
G01 X9.4707 Y7.0571 F120.00
G01 X9.3900 Y7.0369 F120.00
G01 X9.3185 Y7.0115 F120.00
G01 X9.3051 Y7.0060 F120.00
G01 X9.2365 Y6.9734 F120.00
G01 X9.1713 Y6.9345 F120.00
G01 X9.1593 Y6.9264 F120.00
G01 X9.1041 Y6.8855 F120.00
G01 X9.0984 Y6.8811 F120.00
G01 X9.0900 Y6.8737 F120.00
G01 X5.6520 Y6.8737 F120.00
G01 X5.5885 Y6.8706 F120.00
G01 X5.5292 Y6.8619 F120.00
G01 X5.5186 Y6.8596 F120.00
G01 X5.4710 Y6.8477 F120.00
G01 X5.4571 Y6.8435 F120.00
G01 X5.4041 Y6.8244 F120.00
G01 X5.3467 Y6.7972 F120.00
G01 X5.2983 Y6.7684 F120.00
G01 X5.2863 Y6.7604 F120.00
G01 X5.2411 Y6.7267 F120.00
G01 X5.1966 Y6.6865 F120.00
G01 X3.1422 Y4.6321 F120.00
G01 X3.1192 Y4.6333 F120.00
G01 X3.1084 Y4.6334 F120.00
G01 X3.0227 Y4.6292 F120.00
G01 X3.0120 Y4.6280 F120.00
G01 X2.9307 Y4.6159 F120.00
G01 X2.9201 Y4.6136 F120.00
G01 X2.8370 Y4.5926 F120.00
G01 X2.7562 Y4.5639 F120.00
G00 Z0.5000
G00 X2.7281 Y4.6424
G01 F60.00
G01 Z-0.0800
G01 F120.00
G01 X2.7175 Y4.6383 F120.00
G01 X2.7072 Y4.6337 F120.00
G01 X2.6261 Y4.5950 F120.00
G01 X2.5489 Y4.5491 F120.00
G01 X2.5393 Y4.5430 F120.00
G01 X2.5301 Y4.5365 F120.00
G01 X2.4581 Y4.4828 F120.00
G01 X2.3913 Y4.4227 F120.00
G01 X2.3831 Y4.4149 F120.00
G01 X2.3753 Y4.4067 F120.00
G01 X2.3152 Y4.3399 F120.00
G01 X2.2615 Y4.2679 F120.00
G01 X2.2550 Y4.2587 F120.00
G01 X2.2489 Y4.2491 F120.00
G01 X2.2085 Y4.1818 F120.00
G01 X2.2030 Y4.1719 F120.00
G01 X2.1979 Y4.1618 F120.00
G01 X2.1597 Y4.0805 F120.00
G01 X2.1556 Y4.0699 F120.00
G01 X2.1256 Y3.9852 F120.00
G01 X2.1035 Y3.8981 F120.00
G01 X2.1010 Y3.8871 F120.00
G01 X2.0876 Y3.7983 F120.00
G01 X2.0862 Y3.7870 F120.00
G01 X2.0854 Y3.7757 F120.00
G01 X2.0812 Y3.6860 F120.00
G01 X2.0854 Y3.5963 F120.00
G01 X2.0862 Y3.5850 F120.00
G01 X2.0876 Y3.5737 F120.00
G01 X2.1010 Y3.4849 F120.00
G01 X2.1226 Y3.3977 F120.00
G01 X2.1256 Y3.3868 F120.00
G01 X2.1556 Y3.3021 F120.00
G01 X2.1597 Y3.2915 F120.00
G01 X2.1979 Y3.2102 F120.00
G01 X2.2030 Y3.2001 F120.00
G01 X2.2085 Y3.1902 F120.00
G01 X2.2550 Y3.1133 F120.00
G01 X2.3082 Y3.0410 F120.00
G01 X2.3152 Y3.0321 F120.00
G01 X2.3226 Y3.0235 F120.00
G01 X2.3753 Y2.9653 F120.00
G01 X2.3831 Y2.9571 F120.00
G01 X2.3913 Y2.9493 F120.00
G01 X2.4581 Y2.8892 F120.00
G01 X2.5301 Y2.8355 F120.00
G01 X2.5393 Y2.8290 F120.00
G01 X2.5489 Y2.8229 F120.00
G01 X2.6261 Y2.7770 F120.00
G01 X2.6362 Y2.7719 F120.00
G01 X2.7175 Y2.7337 F120.00
G01 X2.8020 Y2.7032 F120.00
G01 X2.8128 Y2.6996 F120.00
G01 X2.8999 Y2.6775 F120.00
G01 X2.9109 Y2.6750 F120.00
G01 X2.9221 Y2.6731 F120.00
G01 X3.0110 Y2.6602 F120.00
G01 X3.1007 Y2.6555 F120.00
G01 X3.1120 Y2.6552 F120.00
G01 X3.1233 Y2.6555 F120.00
G01 X3.2130 Y2.6602 F120.00
G01 X3.2243 Y2.6616 F120.00
G01 X3.3075 Y2.6740 F120.00
G01 X3.3241 Y2.6775 F120.00
G01 X3.4003 Y2.6966 F120.00
G01 X3.4112 Y2.6996 F120.00
G01 X3.4220 Y2.7032 F120.00
G01 X3.5065 Y2.7337 F120.00
G01 X3.5168 Y2.7383 F120.00
G01 X3.5979 Y2.7770 F120.00
G01 X3.6751 Y2.8229 F120.00
G01 X3.6847 Y2.8290 F120.00
G01 X3.7570 Y2.8822 F120.00
G01 X3.7659 Y2.8892 F120.00
G01 X3.7745 Y2.8966 F120.00
G01 X3.8327 Y2.9493 F120.00
G01 X3.8448 Y2.9612 F120.00
G01 X3.9014 Y3.0235 F120.00
G01 X3.9088 Y3.0321 F120.00
G01 X3.9625 Y3.1041 F120.00
G01 X3.9690 Y3.1133 F120.00
G01 X3.9751 Y3.1229 F120.00
G01 X4.0210 Y3.2001 F120.00
G01 X4.0597 Y3.2812 F120.00
G01 X4.0643 Y3.2915 F120.00
G01 X4.0684 Y3.3021 F120.00
G01 X4.0984 Y3.3868 F120.00
G01 X4.1205 Y3.4739 F120.00
G01 X4.1230 Y3.4849 F120.00
G01 X4.1364 Y3.5737 F120.00
G01 X4.1378 Y3.5850 F120.00
G01 X4.1386 Y3.5963 F120.00
G01 X4.1427 Y3.6829 F120.00
G01 X5.9548 Y5.4950 F120.00
G01 X9.0606 Y5.4950 F120.00
G01 X9.1189 Y5.4521 F120.00
G01 X9.1285 Y5.4460 F120.00
G01 X9.1972 Y5.4051 F120.00
G01 X9.2074 Y5.4001 F120.00
G01 X9.2798 Y5.3661 F120.00
G01 X9.3551 Y5.3389 F120.00
G01 X9.3658 Y5.3353 F120.00
G01 X9.3767 Y5.3323 F120.00
G01 X9.4434 Y5.3156 F120.00
G01 X9.4544 Y5.3131 F120.00
G01 X9.4656 Y5.3112 F120.00
G01 X9.5448 Y5.2997 F120.00
G01 X9.6247 Y5.2955 F120.00
G01 X9.6360 Y5.2952 F120.00
G01 X9.6473 Y5.2955 F120.00
G01 X9.7272 Y5.2997 F120.00
G01 X9.8064 Y5.3112 F120.00
G01 X9.8176 Y5.3131 F120.00
G01 X9.8286 Y5.3156 F120.00
G01 X9.8953 Y5.3323 F120.00
G01 X9.9062 Y5.3353 F120.00
G01 X9.9169 Y5.3389 F120.00
G01 X9.9922 Y5.3661 F120.00
G01 X10.0025 Y5.3707 F120.00
G01 X10.0748 Y5.4051 F120.00
G01 X10.1435 Y5.4460 F120.00
G01 X10.1531 Y5.4521 F120.00
G01 X10.2114 Y5.4950 F120.00
G01 X11.0493 Y5.4950 F120.00
G01 X11.1135 Y5.4366 F120.00
G01 X11.1221 Y5.4292 F120.00
G01 X11.1941 Y5.3755 F120.00
G01 X11.2033 Y5.3690 F120.00
G01 X11.2129 Y5.3629 F120.00
G01 X11.2901 Y5.3170 F120.00
G01 X11.3002 Y5.3119 F120.00
G01 X11.3815 Y5.2737 F120.00
G01 X11.4660 Y5.2432 F120.00
G01 X11.4768 Y5.2396 F120.00
G01 X11.4877 Y5.2366 F120.00
G01 X11.5639 Y5.2175 F120.00
G01 X11.5805 Y5.2140 F120.00
G01 X11.6637 Y5.2016 F120.00
G01 X11.6750 Y5.2002 F120.00
G01 X11.7647 Y5.1955 F120.00
G01 X11.7760 Y5.1952 F120.00
G01 X12.5760 Y5.1952 F120.00
G01 X12.6657 Y5.1994 F120.00
G01 X12.6827 Y5.2008 F120.00
G01 X12.7659 Y5.2131 F120.00
G01 X12.7771 Y5.2150 F120.00
G01 X12.7881 Y5.2175 F120.00
G01 X12.8752 Y5.2396 F120.00
G01 X12.9599 Y5.2696 F120.00
G01 X12.9705 Y5.2737 F120.00
G01 X13.0518 Y5.3119 F120.00
G01 X13.0619 Y5.3170 F120.00
G01 X13.0718 Y5.3225 F120.00
G01 X13.1391 Y5.3629 F120.00
G01 X13.1487 Y5.3690 F120.00
G01 X13.1579 Y5.3755 F120.00
G01 X13.2299 Y5.4292 F120.00
G01 X13.2967 Y5.4893 F120.00
G01 X13.3049 Y5.4971 F120.00
G01 X13.3127 Y5.5053 F120.00
G01 X13.3728 Y5.5721 F120.00
G01 X13.4265 Y5.6441 F120.00
G01 X13.4330 Y5.6533 F120.00
G01 X13.4391 Y5.6629 F120.00
G01 X13.4850 Y5.7401 F120.00
G01 X13.5237 Y5.8212 F120.00
G01 X13.5283 Y5.8315 F120.00
G01 X13.5324 Y5.8421 F120.00
G01 X13.5624 Y5.9268 F120.00
G01 X13.5845 Y6.0139 F120.00
G01 X13.5870 Y6.0249 F120.00
G01 X13.6004 Y6.1137 F120.00
G01 X13.6018 Y6.1250 F120.00
G01 X13.6026 Y6.1363 F120.00
G01 X13.6068 Y6.2260 F120.00
G01 X13.6026 Y6.3157 F120.00
G01 X13.6018 Y6.3270 F120.00
G01 X13.6004 Y6.3383 F120.00
G01 X13.5880 Y6.4215 F120.00
G01 X13.5845 Y6.4381 F120.00
G01 X13.5654 Y6.5143 F120.00
G01 X13.5624 Y6.5252 F120.00
G01 X13.5588 Y6.5360 F120.00
G01 X13.5283 Y6.6205 F120.00
G01 X13.4901 Y6.7018 F120.00
G01 X13.4850 Y6.7119 F120.00
G01 X13.4795 Y6.7218 F120.00
G01 X13.4330 Y6.7987 F120.00
G01 X13.3798 Y6.8710 F120.00
G01 X13.3728 Y6.8799 F120.00
G01 X13.3654 Y6.8885 F120.00
G01 X13.3127 Y6.9467 F120.00
G01 X13.3049 Y6.9549 F120.00
G01 X13.2967 Y6.9627 F120.00
G01 X13.2299 Y7.0228 F120.00
G01 X13.1579 Y7.0765 F120.00
G01 X13.1487 Y7.0830 F120.00
G01 X13.1391 Y7.0891 F120.00
G01 X13.0619 Y7.1350 F120.00
G01 X12.9808 Y7.1737 F120.00
G01 X12.9705 Y7.1783 F120.00
G01 X12.9599 Y7.1824 F120.00
G01 X12.8860 Y7.2088 F120.00
G01 X12.8752 Y7.2124 F120.00
G01 X12.8643 Y7.2154 F120.00
G01 X12.7771 Y7.2370 F120.00
G01 X12.6883 Y7.2504 F120.00
G01 X12.6714 Y7.2523 F120.00
G01 X12.5873 Y7.2565 F120.00
G01 X12.5760 Y7.2568 F120.00
G01 X11.7703 Y7.2567 F120.00
G01 X11.6863 Y7.2526 F120.00
G01 X11.6750 Y7.2518 F120.00
G01 X11.6637 Y7.2504 F120.00
G01 X11.5805 Y7.2380 F120.00
G01 X11.5639 Y7.2345 F120.00
G01 X11.4877 Y7.2154 F120.00
G01 X11.4768 Y7.2124 F120.00
G01 X11.4660 Y7.2088 F120.00
G01 X11.3815 Y7.1783 F120.00
G01 X11.3002 Y7.1401 F120.00
G01 X11.2901 Y7.1350 F120.00
G01 X11.2129 Y7.0891 F120.00
G01 X11.2033 Y7.0830 F120.00
G01 X11.1941 Y7.0765 F120.00
G01 X11.1221 Y7.0228 F120.00
G01 X11.1135 Y7.0154 F120.00
G01 X11.0493 Y6.9570 F120.00
G01 X10.2114 Y6.9570 F120.00
G01 X10.1531 Y6.9999 F120.00
G01 X10.1435 Y7.0060 F120.00
G01 X10.0748 Y7.0469 F120.00
G01 X10.0646 Y7.0519 F120.00
G01 X9.9922 Y7.0859 F120.00
G01 X9.9169 Y7.1131 F120.00
G01 X9.9062 Y7.1167 F120.00
G01 X9.8953 Y7.1197 F120.00
G01 X9.8286 Y7.1364 F120.00
G01 X9.8176 Y7.1389 F120.00
G01 X9.8064 Y7.1408 F120.00
G01 X9.7272 Y7.1523 F120.00
G01 X9.6473 Y7.1565 F120.00
G01 X9.6360 Y7.1568 F120.00
G01 X9.6247 Y7.1565 F120.00
G01 X9.5448 Y7.1523 F120.00
G01 X9.4656 Y7.1408 F120.00
G01 X9.4544 Y7.1389 F120.00
G01 X9.4434 Y7.1364 F120.00
G01 X9.3767 Y7.1197 F120.00
G01 X9.3658 Y7.1167 F120.00
G01 X9.3551 Y7.1131 F120.00
G01 X9.2798 Y7.0859 F120.00
G01 X9.2695 Y7.0813 F120.00
G01 X9.1972 Y7.0469 F120.00
G01 X9.1285 Y7.0060 F120.00
G01 X9.1189 Y6.9999 F120.00
G01 X9.0606 Y6.9570 F120.00
G01 X5.6520 Y6.9570 F120.00
G01 X5.5916 Y6.9543 F120.00
G01 X5.5803 Y6.9535 F120.00
G01 X5.5150 Y6.9440 F120.00
G01 X5.4983 Y6.9405 F120.00
G01 X5.4507 Y6.9286 F120.00
G01 X5.4398 Y6.9255 F120.00
G01 X5.4290 Y6.9220 F120.00
G01 X5.3723 Y6.9014 F120.00
G01 X5.3175 Y6.8758 F120.00
G01 X5.3074 Y6.8707 F120.00
G01 X5.2554 Y6.8399 F120.00
G01 X5.2459 Y6.8338 F120.00
G01 X5.2366 Y6.8273 F120.00
G01 X5.1883 Y6.7911 F120.00
G01 X5.1433 Y6.7507 F120.00
G01 X5.1351 Y6.7429 F120.00
G01 X3.1089 Y4.7167 F120.00
G01 X3.0223 Y4.7126 F120.00
G01 X3.0110 Y4.7118 F120.00
G01 X2.9221 Y4.6989 F120.00
G01 X2.9109 Y4.6970 F120.00
G01 X2.8999 Y4.6945 F120.00
G01 X2.8128 Y4.6724 F120.00
G01 X2.7281 Y4.6424 F120.00
G00 Z0.5000
G00 X2.2345 Y9.4731
G01 F60.00
G01 Z-0.0800
G01 F120.00
G01 X2.2287 Y9.4707 F120.00
G01 X2.1638 Y9.4399 F120.00
G01 X2.0995 Y9.4013 F120.00
G01 X2.0393 Y9.3567 F120.00
G01 X1.9837 Y9.3063 F120.00
G01 X1.9333 Y9.2507 F120.00
G01 X1.8887 Y9.1905 F120.00
G01 X1.8501 Y9.1262 F120.00
G01 X1.8181 Y9.0584 F120.00
G01 X1.7928 Y8.9878 F120.00
G01 X1.7746 Y8.9151 F120.00
G01 X1.7636 Y8.8409 F120.00
G01 X1.7599 Y8.7660 F120.00
G01 X1.7636 Y8.6911 F120.00
G01 X1.7746 Y8.6169 F120.00
G01 X1.7928 Y8.5442 F120.00
G01 X1.8181 Y8.4736 F120.00
G01 X1.8501 Y8.4058 F120.00
G01 X1.8887 Y8.3415 F120.00
G01 X1.9333 Y8.2813 F120.00
G01 X1.9837 Y8.2257 F120.00
G01 X2.0393 Y8.1753 F120.00
G01 X2.0995 Y8.1307 F120.00
G01 X2.1638 Y8.0921 F120.00
G01 X2.2316 Y8.0601 F120.00
G01 X2.3022 Y8.0348 F120.00
G01 X2.3749 Y8.0166 F120.00
G01 X2.4491 Y8.0056 F120.00
G01 X2.5240 Y8.0019 F120.00
G01 X2.5989 Y8.0056 F120.00
G01 X2.6731 Y8.0166 F120.00
G01 X2.7458 Y8.0348 F120.00
G01 X2.8164 Y8.0601 F120.00
G01 X2.8842 Y8.0921 F120.00
G01 X2.9459 Y8.1290 F120.00
G01 X2.9511 Y8.1325 F120.00
G01 X3.0087 Y8.1753 F120.00
G01 X3.0620 Y8.2235 F120.00
G01 X3.0665 Y8.2280 F120.00
G01 X3.1147 Y8.2813 F120.00
G01 X3.1584 Y8.3402 F120.00
G01 X3.1963 Y8.4031 F120.00
G01 X3.1993 Y8.4086 F120.00
G01 X3.2299 Y8.4736 F120.00
G01 X3.2547 Y8.5427 F120.00
G01 X3.2737 Y8.6185 F120.00
G01 X3.2842 Y8.6895 F120.00
G01 X3.2864 Y8.7303 F120.00
G01 X5.1850 Y10.6288 F120.00
G01 X5.2244 Y10.6349 F120.00
G01 X5.3018 Y10.6544 F120.00
G01 X5.3755 Y10.6809 F120.00
G01 X5.4491 Y10.7158 F120.00
G01 X5.5163 Y10.7561 F120.00
G01 X5.5805 Y10.8037 F120.00
G01 X5.6397 Y10.8573 F120.00
G01 X5.6943 Y10.9178 F120.00
G01 X5.7409 Y10.9807 F120.00
G01 X5.7804 Y11.0465 F120.00
G01 X5.7834 Y11.0520 F120.00
G01 X5.8149 Y11.1186 F120.00
G01 X5.8173 Y11.1244 F120.00
G01 X5.8430 Y11.1967 F120.00
G01 X5.8625 Y11.2742 F120.00
G01 X5.8742 Y11.3532 F120.00
G01 X5.8780 Y11.4299 F120.00
G01 X5.8780 Y11.4361 F120.00
G01 X5.8744 Y11.5097 F120.00
G01 X5.8738 Y11.5159 F120.00
G01 X5.8625 Y11.5918 F120.00
G01 X5.8430 Y11.6693 F120.00
G01 X5.8161 Y11.7445 F120.00
G01 X5.7834 Y11.8140 F120.00
G01 X5.7804 Y11.8195 F120.00
G01 X5.7400 Y11.8866 F120.00
G01 X5.6933 Y11.9495 F120.00
G01 X5.6397 Y12.0087 F120.00
G01 X5.5805 Y12.0623 F120.00
G01 X5.5163 Y12.1099 F120.00
G01 X5.4478 Y12.1510 F120.00
G01 X5.3755 Y12.1851 F120.00
G01 X5.3003 Y12.2120 F120.00
G01 X5.2228 Y12.2315 F120.00
G01 X5.1438 Y12.2432 F120.00
G01 X5.0640 Y12.2471 F120.00
G01 X4.9842 Y12.2432 F120.00
G01 X4.9052 Y12.2315 F120.00
G01 X4.8277 Y12.2120 F120.00
G01 X4.7525 Y12.1851 F120.00
G01 X4.6802 Y12.1510 F120.00
G01 X4.6104 Y12.1090 F120.00
G01 X4.5475 Y12.0623 F120.00
G01 X4.4906 Y12.0108 F120.00
G01 X4.4862 Y12.0064 F120.00
G01 X4.4347 Y11.9495 F120.00
G01 X4.3889 Y11.8879 F120.00
G01 X4.3854 Y11.8826 F120.00
G01 X4.3460 Y11.8168 F120.00
G01 X4.3125 Y11.7460 F120.00
G01 X4.2859 Y11.6723 F120.00
G01 X4.2841 Y11.6663 F120.00
G01 X4.2655 Y11.5918 F120.00
G01 X4.2540 Y11.5144 F120.00
G01 X4.2499 Y11.4314 F120.00
G01 X4.2538 Y11.3532 F120.00
G01 X4.2614 Y11.3015 F120.00
G01 X2.4883 Y9.5284 F120.00
G01 X2.4475 Y9.5262 F120.00
G01 X2.3734 Y9.5151 F120.00
G01 X2.3022 Y9.4972 F120.00
G01 X2.2345 Y9.4731 F120.00
G00 Z0.5000
G00 X2.2065 Y9.5515
G01 F60.00
G01 Z-0.0800
G01 F120.00
G01 X2.1931 Y9.5460 F120.00
G01 X2.1245 Y9.5134 F120.00
G01 X2.0532 Y9.4706 F120.00
G01 X1.9864 Y9.4211 F120.00
G01 X1.9248 Y9.3652 F120.00
G01 X1.8689 Y9.3036 F120.00
G01 X1.8194 Y9.2368 F120.00
G01 X1.7766 Y9.1655 F120.00
G01 X1.7411 Y9.0903 F120.00
G01 X1.7131 Y9.0120 F120.00
G01 X1.6929 Y8.9313 F120.00
G01 X1.6807 Y8.8491 F120.00
G01 X1.6766 Y8.7660 F120.00
G01 X1.6807 Y8.6829 F120.00
G01 X1.6929 Y8.6007 F120.00
G01 X1.7131 Y8.5200 F120.00
G01 X1.7411 Y8.4417 F120.00
G01 X1.7766 Y8.3665 F120.00
G01 X1.8194 Y8.2952 F120.00
G01 X1.8689 Y8.2284 F120.00
G01 X1.9248 Y8.1668 F120.00
G01 X1.9864 Y8.1109 F120.00
G01 X2.0532 Y8.0614 F120.00
G01 X2.1245 Y8.0186 F120.00
G01 X2.1997 Y7.9831 F120.00
G01 X2.2780 Y7.9551 F120.00
G01 X2.3587 Y7.9349 F120.00
G01 X2.4409 Y7.9227 F120.00
G01 X2.5240 Y7.9186 F120.00
G01 X2.6071 Y7.9227 F120.00
G01 X2.6893 Y7.9349 F120.00
G01 X2.7700 Y7.9551 F120.00
G01 X2.8483 Y7.9831 F120.00
G01 X2.9235 Y8.0186 F120.00
G01 X2.9887 Y8.0575 F120.00
G01 X3.0007 Y8.0656 F120.00
G01 X3.0616 Y8.1109 F120.00
G01 X3.1180 Y8.1618 F120.00
G01 X3.1282 Y8.1720 F120.00
G01 X3.1791 Y8.2284 F120.00
G01 X3.2244 Y8.2893 F120.00
G01 X3.2325 Y8.3013 F120.00
G01 X3.2678 Y8.3602 F120.00
G01 X3.2746 Y8.3730 F120.00
G01 X3.3069 Y8.4417 F120.00
G01 X3.3327 Y8.5131 F120.00
G01 X3.3369 Y8.5270 F120.00
G01 X3.3551 Y8.6007 F120.00
G01 X3.3665 Y8.6758 F120.00
G01 X3.3673 Y8.6829 F120.00
G01 X3.3681 Y8.6941 F120.00
G01 X5.2244 Y10.5505 F120.00
G01 X5.2355 Y10.5522 F120.00
G01 X5.2461 Y10.5544 F120.00
G01 X5.3175 Y10.5723 F120.00
G01 X5.3314 Y10.5765 F120.00
G01 X5.4074 Y10.6039 F120.00
G01 X5.4806 Y10.6383 F120.00
G01 X5.4933 Y10.6451 F120.00
G01 X5.5626 Y10.6868 F120.00
G01 X5.6333 Y10.7393 F120.00
G01 X5.6986 Y10.7984 F120.00
G01 X5.7530 Y10.8582 F120.00
G01 X5.7622 Y10.8694 F120.00
G01 X5.8102 Y10.9344 F120.00
G01 X5.8519 Y11.0037 F120.00
G01 X5.8587 Y11.0164 F120.00
G01 X5.8902 Y11.0830 F120.00
G01 X5.8957 Y11.0963 F120.00
G01 X5.9228 Y11.1725 F120.00
G01 X5.9442 Y11.2579 F120.00
G01 X5.9571 Y11.3450 F120.00
G01 X5.9613 Y11.4258 F120.00
G01 X5.9613 Y11.4402 F120.00
G01 X5.9576 Y11.5137 F120.00
G01 X5.9562 Y11.5281 F120.00
G01 X5.9442 Y11.6081 F120.00
G01 X5.9228 Y11.6935 F120.00
G01 X5.8957 Y11.7697 F120.00
G01 X5.8902 Y11.7830 F120.00
G01 X5.8555 Y11.8560 F120.00
G01 X5.8102 Y11.9316 F120.00
G01 X5.7577 Y12.0023 F120.00
G01 X5.6986 Y12.0676 F120.00
G01 X5.6333 Y12.1267 F120.00
G01 X5.5626 Y12.1792 F120.00
G01 X5.4870 Y12.2245 F120.00
G01 X5.4074 Y12.2621 F120.00
G01 X5.3245 Y12.2918 F120.00
G01 X5.2391 Y12.3132 F120.00
G01 X5.1520 Y12.3261 F120.00
G01 X5.0640 Y12.3304 F120.00
G01 X4.9760 Y12.3261 F120.00
G01 X4.8889 Y12.3132 F120.00
G01 X4.8035 Y12.2918 F120.00
G01 X4.7206 Y12.2621 F120.00
G01 X4.6410 Y12.2245 F120.00
G01 X4.5654 Y12.1792 F120.00
G01 X4.4947 Y12.1267 F120.00
G01 X4.4347 Y12.0726 F120.00
G01 X4.4244 Y12.0623 F120.00
G01 X4.3703 Y12.0023 F120.00
G01 X4.3220 Y11.9375 F120.00
G01 X4.3139 Y11.9255 F120.00
G01 X4.2725 Y11.8560 F120.00
G01 X4.2378 Y11.7830 F120.00
G01 X4.2323 Y11.7697 F120.00
G01 X4.2075 Y11.7004 F120.00
G01 X4.2033 Y11.6865 F120.00
G01 X4.1838 Y11.6081 F120.00
G01 X4.1718 Y11.5281 F120.00
G01 X4.1704 Y11.5137 F120.00
G01 X4.1666 Y11.4330 F120.00
G01 X4.1704 Y11.3523 F120.00
G01 X4.1713 Y11.3414 F120.00
G01 X4.1728 Y11.3308 F120.00
G01 X2.4521 Y9.6101 F120.00
G01 X2.4409 Y9.6093 F120.00
G01 X2.4338 Y9.6085 F120.00
G01 X2.3658 Y9.5984 F120.00
G01 X2.3516 Y9.5956 F120.00
G01 X2.2780 Y9.5769 F120.00
G01 X2.2065 Y9.5515 F120.00
G00 Z0.5000
G00 X2.1784 Y9.6300
G01 F60.00
G01 Z-0.0800
G01 F120.00
G01 X2.1678 Y9.6259 F120.00
G01 X2.1575 Y9.6213 F120.00
G01 X2.0852 Y9.5869 F120.00
G01 X2.0165 Y9.5460 F120.00
G01 X2.0069 Y9.5399 F120.00
G01 X1.9976 Y9.5334 F120.00
G01 X1.9335 Y9.4855 F120.00
G01 X1.8741 Y9.4320 F120.00
G01 X1.8659 Y9.4241 F120.00
G01 X1.8580 Y9.4159 F120.00
G01 X1.8045 Y9.3565 F120.00
G01 X1.7975 Y9.3475 F120.00
G01 X1.7501 Y9.2831 F120.00
G01 X1.7087 Y9.2146 F120.00
G01 X1.7031 Y9.2048 F120.00
G01 X1.6981 Y9.1946 F120.00
G01 X1.6641 Y9.1222 F120.00
G01 X1.6369 Y9.0469 F120.00
G01 X1.6333 Y9.0362 F120.00
G01 X1.6303 Y9.0253 F120.00
G01 X1.6111 Y8.9476 F120.00
G01 X1.5991 Y8.8685 F120.00
G01 X1.5977 Y8.8572 F120.00
G01 X1.5935 Y8.7773 F120.00
G01 X1.5932 Y8.7660 F120.00
G01 X1.5935 Y8.7547 F120.00
G01 X1.5977 Y8.6748 F120.00
G01 X1.5991 Y8.6635 F120.00
G01 X1.6111 Y8.5844 F120.00
G01 X1.6136 Y8.5734 F120.00
G01 X1.6333 Y8.4958 F120.00
G01 X1.6600 Y8.4204 F120.00
G01 X1.6641 Y8.4098 F120.00
G01 X1.6687 Y8.3995 F120.00
G01 X1.7031 Y8.3272 F120.00
G01 X1.7440 Y8.2585 F120.00
G01 X1.7501 Y8.2489 F120.00
G01 X1.7566 Y8.2396 F120.00
G01 X1.8045 Y8.1755 F120.00
G01 X1.8580 Y8.1161 F120.00
G01 X1.8659 Y8.1079 F120.00
G01 X1.8741 Y8.1000 F120.00
G01 X1.9335 Y8.0465 F120.00
G01 X1.9976 Y7.9986 F120.00
G01 X2.0069 Y7.9921 F120.00
G01 X2.0165 Y7.9860 F120.00
G01 X2.0852 Y7.9451 F120.00
G01 X2.0954 Y7.9401 F120.00
G01 X2.1678 Y7.9061 F120.00
G01 X2.2431 Y7.8789 F120.00
G01 X2.2538 Y7.8753 F120.00
G01 X2.3314 Y7.8556 F120.00
G01 X2.3424 Y7.8531 F120.00
G01 X2.3536 Y7.8512 F120.00
G01 X2.4328 Y7.8397 F120.00
G01 X2.5127 Y7.8355 F120.00
G01 X2.5240 Y7.8352 F120.00
G01 X2.5353 Y7.8355 F120.00
G01 X2.6152 Y7.8397 F120.00
G01 X2.6944 Y7.8512 F120.00
G01 X2.7056 Y7.8531 F120.00
G01 X2.7166 Y7.8556 F120.00
G01 X2.7942 Y7.8753 F120.00
G01 X2.8696 Y7.9020 F120.00
G01 X2.8802 Y7.9061 F120.00
G01 X2.9526 Y7.9401 F120.00
G01 X2.9628 Y7.9451 F120.00
G01 X2.9726 Y7.9507 F120.00
G01 X3.0411 Y7.9921 F120.00
G01 X3.1055 Y8.0395 F120.00
G01 X3.1145 Y8.0465 F120.00
G01 X3.1230 Y8.0539 F120.00
G01 X3.1821 Y8.1079 F120.00
G01 X3.2361 Y8.1670 F120.00
G01 X3.2435 Y8.1755 F120.00
G01 X3.2505 Y8.1845 F120.00
G01 X3.2979 Y8.2489 F120.00
G01 X3.3393 Y8.3174 F120.00
G01 X3.3449 Y8.3272 F120.00
G01 X3.3499 Y8.3374 F120.00
G01 X3.3839 Y8.4098 F120.00
G01 X3.4111 Y8.4851 F120.00
G01 X3.4147 Y8.4958 F120.00
G01 X3.4177 Y8.5067 F120.00
G01 X3.4369 Y8.5844 F120.00
G01 X3.4478 Y8.6560 F120.00
G01 X5.2651 Y10.4733 F120.00
G01 X5.3487 Y10.4945 F120.00
G01 X5.4288 Y10.5228 F120.00
G01 X5.4393 Y10.5269 F120.00
G01 X5.4497 Y10.5315 F120.00
G01 X5.5162 Y10.5630 F120.00
G01 X5.5263 Y10.5680 F120.00
G01 X5.5362 Y10.5736 F120.00
G01 X5.6089 Y10.6175 F120.00
G01 X5.6181 Y10.6240 F120.00
G01 X5.6862 Y10.6749 F120.00
G01 X5.7493 Y10.7317 F120.00
G01 X5.7575 Y10.7395 F120.00
G01 X5.8147 Y10.8022 F120.00
G01 X5.8221 Y10.8108 F120.00
G01 X5.8291 Y10.8197 F120.00
G01 X5.8730 Y10.8789 F120.00
G01 X5.8795 Y10.8881 F120.00
G01 X5.8855 Y10.8977 F120.00
G01 X5.9290 Y10.9707 F120.00
G01 X5.9655 Y11.0473 F120.00
G01 X5.9701 Y11.0577 F120.00
G01 X5.9742 Y11.0682 F120.00
G01 X6.0025 Y11.1483 F120.00
G01 X6.0234 Y11.2306 F120.00
G01 X6.0259 Y11.2417 F120.00
G01 X6.0387 Y11.3256 F120.00
G01 X6.0400 Y11.3369 F120.00
G01 X6.0445 Y11.4217 F120.00
G01 X6.0447 Y11.4387 F120.00
G01 X6.0409 Y11.5178 F120.00
G01 X6.0400 Y11.5291 F120.00
G01 X6.0279 Y11.6132 F120.00
G01 X6.0259 Y11.6243 F120.00
G01 X6.0234 Y11.6354 F120.00
G01 X6.0025 Y11.7177 F120.00
G01 X5.9742 Y11.7978 F120.00
G01 X5.9701 Y11.8083 F120.00
G01 X5.9655 Y11.8187 F120.00
G01 X5.9290 Y11.8953 F120.00
G01 X5.9234 Y11.9052 F120.00
G01 X5.8795 Y11.9779 F120.00
G01 X5.8291 Y12.0463 F120.00
G01 X5.8221 Y12.0552 F120.00
G01 X5.7653 Y12.1183 F120.00
G01 X5.7575 Y12.1265 F120.00
G01 X5.7493 Y12.1343 F120.00
G01 X5.6862 Y12.1911 F120.00
G01 X5.6181 Y12.2420 F120.00
G01 X5.6089 Y12.2485 F120.00
G01 X5.5993 Y12.2545 F120.00
G01 X5.5263 Y12.2980 F120.00
G01 X5.5162 Y12.3030 F120.00
G01 X5.4393 Y12.3391 F120.00
G01 X5.3595 Y12.3680 F120.00
G01 X5.3487 Y12.3715 F120.00
G01 X5.2664 Y12.3924 F120.00
G01 X5.2553 Y12.3949 F120.00
G01 X5.2442 Y12.3969 F120.00
G01 X5.1601 Y12.4090 F120.00
G01 X5.0753 Y12.4135 F120.00
G01 X5.0583 Y12.4137 F120.00
G01 X4.9792 Y12.4099 F120.00
G01 X4.9679 Y12.4090 F120.00
G01 X4.8838 Y12.3969 F120.00
G01 X4.8727 Y12.3949 F120.00
G01 X4.7902 Y12.3745 F120.00
G01 X4.7793 Y12.3715 F120.00
G01 X4.7685 Y12.3680 F120.00
G01 X4.6887 Y12.3391 F120.00
G01 X4.6118 Y12.3030 F120.00
G01 X4.6017 Y12.2980 F120.00
G01 X4.5287 Y12.2545 F120.00
G01 X4.5191 Y12.2485 F120.00
G01 X4.5099 Y12.2420 F120.00
G01 X4.4418 Y12.1911 F120.00
G01 X4.3787 Y12.1343 F120.00
G01 X4.3665 Y12.1224 F120.00
G01 X4.3133 Y12.0638 F120.00
G01 X4.3059 Y12.0552 F120.00
G01 X4.2550 Y11.9871 F120.00
G01 X4.2485 Y11.9779 F120.00
G01 X4.2425 Y11.9683 F120.00
G01 X4.1990 Y11.8953 F120.00
G01 X4.1625 Y11.8187 F120.00
G01 X4.1579 Y11.8083 F120.00
G01 X4.1538 Y11.7978 F120.00
G01 X4.1255 Y11.7177 F120.00
G01 X4.1046 Y11.6354 F120.00
G01 X4.1021 Y11.6243 F120.00
G01 X4.1001 Y11.6132 F120.00
G01 X4.0893 Y11.5404 F120.00
G01 X4.0880 Y11.5291 F120.00
G01 X4.0871 Y11.5178 F120.00
G01 X4.0832 Y11.4330 F120.00
G01 X4.0864 Y11.3622 F120.00
G01 X3.5048 Y10.7806 F120.00
G01 X3.5048 Y11.3800 F120.00
G01 X7.7798 Y15.6550 F120.00
G01 X11.0952 Y15.6550 F120.00
G01 X11.0952 Y15.5360 F120.00
G01 X11.0959 Y15.5190 F120.00
G01 X11.0970 Y15.5078 F120.00
G01 X11.0986 Y15.4965 F120.00
G01 X11.1008 Y15.4854 F120.00
G01 X11.1036 Y15.4745 F120.00
G01 X11.1069 Y15.4636 F120.00
G01 X11.1107 Y15.4530 F120.00
G01 X11.1150 Y15.4425 F120.00
G01 X11.1199 Y15.4322 F120.00
G01 X11.1252 Y15.4223 F120.00
G01 X11.1310 Y15.4125 F120.00
G01 X11.1407 Y15.3985 F120.00
G01 X11.1476 Y15.3896 F120.00
G01 X11.1550 Y15.3810 F120.00
G01 X11.1628 Y15.3728 F120.00
G01 X11.1710 Y15.3650 F120.00
G01 X11.1840 Y15.3541 F120.00
G01 X11.1931 Y15.3473 F120.00
G01 X11.2025 Y15.3410 F120.00
G01 X11.2123 Y15.3352 F120.00
G01 X11.2273 Y15.3274 F120.00
G01 X11.2377 Y15.3228 F120.00
G01 X11.2483 Y15.3187 F120.00
G01 X11.2590 Y15.3152 F120.00
G01 X11.2754 Y15.3108 F120.00
G01 X11.2865 Y15.3086 F120.00
G01 X11.3034 Y15.3064 F120.00
G01 X11.3147 Y15.3055 F120.00
G01 X11.3260 Y15.3052 F120.00
G01 X13.0260 Y15.3052 F120.00
G01 X13.0430 Y15.3059 F120.00
G01 X13.0599 Y15.3077 F120.00
G01 X13.0766 Y15.3108 F120.00
G01 X13.0930 Y15.3152 F120.00
G01 X13.1090 Y15.3207 F120.00
G01 X13.1247 Y15.3274 F120.00
G01 X13.1397 Y15.3352 F120.00
G01 X13.1542 Y15.3441 F120.00
G01 X13.1680 Y15.3541 F120.00
G01 X13.1767 Y15.3613 F120.00
G01 X13.1851 Y15.3689 F120.00
G01 X13.1970 Y15.3810 F120.00
G01 X13.2079 Y15.3940 F120.00
G01 X13.2179 Y15.4078 F120.00
G01 X13.2268 Y15.4223 F120.00
G01 X13.2346 Y15.4373 F120.00
G01 X13.2392 Y15.4477 F120.00
G01 X13.2433 Y15.4583 F120.00
G01 X13.2484 Y15.4745 F120.00
G01 X13.2523 Y15.4910 F120.00
G01 X13.2550 Y15.5078 F120.00
G01 X13.2565 Y15.5247 F120.00
G01 X13.2568 Y15.5360 F120.00
G01 X13.2567 Y17.2417 F120.00
G01 X13.2556 Y17.2586 F120.00
G01 X13.2534 Y17.2755 F120.00
G01 X13.2498 Y17.2921 F120.00
G01 X13.2451 Y17.3084 F120.00
G01 X13.2392 Y17.3243 F120.00
G01 X13.2321 Y17.3398 F120.00
G01 X13.2239 Y17.3546 F120.00
G01 X13.2147 Y17.3689 F120.00
G01 X13.2044 Y17.3824 F120.00
G01 X13.1970 Y17.3910 F120.00
G01 X13.1892 Y17.3992 F120.00
G01 X13.1810 Y17.4070 F120.00
G01 X13.1680 Y17.4179 F120.00
G01 X13.1589 Y17.4247 F120.00
G01 X13.1495 Y17.4310 F120.00
G01 X13.1348 Y17.4395 F120.00
G01 X13.1247 Y17.4446 F120.00
G01 X13.1143 Y17.4492 F120.00
G01 X13.0984 Y17.4551 F120.00
G01 X13.0875 Y17.4584 F120.00
G01 X13.0766 Y17.4612 F120.00
G01 X13.0599 Y17.4643 F120.00
G01 X13.0486 Y17.4656 F120.00
G01 X13.0373 Y17.4665 F120.00
G01 X13.0260 Y17.4668 F120.00
G01 X11.3260 Y17.4668 F120.00
G01 X11.3090 Y17.4661 F120.00
G01 X11.2978 Y17.4650 F120.00
G01 X11.2810 Y17.4623 F120.00
G01 X11.2645 Y17.4584 F120.00
G01 X11.2536 Y17.4551 F120.00
G01 X11.2377 Y17.4492 F120.00
G01 X11.2273 Y17.4446 F120.00
G01 X11.2172 Y17.4395 F120.00
G01 X11.2074 Y17.4339 F120.00
G01 X11.1931 Y17.4247 F120.00
G01 X11.1840 Y17.4179 F120.00
G01 X11.1710 Y17.4070 F120.00
G01 X11.1628 Y17.3992 F120.00
G01 X11.1550 Y17.3910 F120.00
G01 X11.1441 Y17.3780 F120.00
G01 X11.1341 Y17.3642 F120.00
G01 X11.1281 Y17.3546 F120.00
G01 X11.1225 Y17.3448 F120.00
G01 X11.1174 Y17.3347 F120.00
G01 X11.1128 Y17.3243 F120.00
G01 X11.1087 Y17.3137 F120.00
G01 X11.1052 Y17.3030 F120.00
G01 X11.1022 Y17.2921 F120.00
G01 X11.0997 Y17.2810 F120.00
G01 X11.0977 Y17.2699 F120.00
G01 X11.0964 Y17.2586 F120.00
G01 X11.0953 Y17.2417 F120.00
G01 X11.0952 Y17.1170 F120.00
G01 X7.4713 Y17.1169 F120.00
G01 X7.4053 Y17.1135 F120.00
G01 X7.3455 Y17.1049 F120.00
G01 X7.3344 Y17.1030 F120.00
G01 X7.3233 Y17.1005 F120.00
G01 X7.2648 Y17.0855 F120.00
G01 X7.2540 Y17.0820 F120.00
G01 X7.1973 Y17.0614 F120.00
G01 X7.1425 Y17.0358 F120.00
G01 X7.1324 Y17.0307 F120.00
G01 X7.1225 Y17.0251 F120.00
G01 X7.0804 Y16.9999 F120.00
G01 X7.0662 Y16.9906 F120.00
G01 X7.0133 Y16.9511 F120.00
G01 X6.9683 Y16.9107 F120.00
G01 X6.9601 Y16.9029 F120.00
G01 X2.4710 Y12.4138 F120.00
G01 X1.7740 Y12.4138 F120.00
G01 X1.7570 Y12.4131 F120.00
G01 X1.7458 Y12.4120 F120.00
G01 X1.7345 Y12.4104 F120.00
G01 X1.7234 Y12.4082 F120.00
G01 X1.7125 Y12.4054 F120.00
G01 X1.7016 Y12.4021 F120.00
G01 X1.6910 Y12.3983 F120.00
G01 X1.6805 Y12.3940 F120.00
G01 X1.6702 Y12.3891 F120.00
G01 X1.6554 Y12.3809 F120.00
G01 X1.6458 Y12.3749 F120.00
G01 X1.6365 Y12.3683 F120.00
G01 X1.6233 Y12.3577 F120.00
G01 X1.6149 Y12.3501 F120.00
G01 X1.6030 Y12.3380 F120.00
G01 X1.5956 Y12.3294 F120.00
G01 X1.5887 Y12.3205 F120.00
G01 X1.5821 Y12.3112 F120.00
G01 X1.5732 Y12.2967 F120.00
G01 X1.5654 Y12.2817 F120.00
G01 X1.5608 Y12.2713 F120.00
G01 X1.5549 Y12.2554 F120.00
G01 X1.5502 Y12.2391 F120.00
G01 X1.5466 Y12.2225 F120.00
G01 X1.5444 Y12.2056 F120.00
G01 X1.5433 Y12.1887 F120.00
G01 X1.5432 Y10.6830 F120.00
G01 X1.5439 Y10.6660 F120.00
G01 X1.5450 Y10.6548 F120.00
G01 X1.5466 Y10.6435 F120.00
G01 X1.5502 Y10.6269 F120.00
G01 X1.5532 Y10.6160 F120.00
G01 X1.5567 Y10.6053 F120.00
G01 X1.5608 Y10.5947 F120.00
G01 X1.5654 Y10.5843 F120.00
G01 X1.5705 Y10.5742 F120.00
G01 X1.5761 Y10.5644 F120.00
G01 X1.5853 Y10.5501 F120.00
G01 X1.5921 Y10.5410 F120.00
G01 X1.5993 Y10.5323 F120.00
G01 X1.6069 Y10.5239 F120.00
G01 X1.6149 Y10.5159 F120.00
G01 X1.6276 Y10.5046 F120.00
G01 X1.6365 Y10.4977 F120.00
G01 X1.6458 Y10.4911 F120.00
G01 X1.6554 Y10.4851 F120.00
G01 X1.6652 Y10.4795 F120.00
G01 X1.6753 Y10.4744 F120.00
G01 X1.6857 Y10.4698 F120.00
G01 X1.6963 Y10.4657 F120.00
G01 X1.7070 Y10.4622 F120.00
G01 X1.7179 Y10.4592 F120.00
G01 X1.7290 Y10.4567 F120.00
G01 X1.7401 Y10.4547 F120.00
G01 X1.7514 Y10.4534 F120.00
G01 X1.7627 Y10.4525 F120.00
G01 X1.7740 Y10.4522 F120.00
G01 X3.1764 Y10.4522 F120.00
G01 X2.4140 Y9.6898 F120.00
G01 X2.3424 Y9.6789 F120.00
G01 X2.2647 Y9.6597 F120.00
G01 X2.2538 Y9.6567 F120.00
G01 X2.2431 Y9.6531 F120.00
G01 X2.1784 Y9.6300 F120.00
G00 Z0.5000
G00 X1.7740 Y12.2471
G01 F60.00
G01 Z-0.0800
G01 F120.00
G01 X1.7677 Y12.2468 F120.00
G01 X1.7615 Y12.2459 F120.00
G01 X1.7554 Y12.2443 F120.00
G01 X1.7495 Y12.2422 F120.00
G01 X1.7397 Y12.2372 F120.00
G01 X1.7346 Y12.2335 F120.00
G01 X1.7298 Y12.2294 F120.00
G01 X1.7255 Y12.2249 F120.00
G01 X1.7216 Y12.2199 F120.00
G01 X1.7182 Y12.2146 F120.00
G01 X1.7154 Y12.2090 F120.00
G01 X1.7131 Y12.2031 F120.00
G01 X1.7115 Y12.1970 F120.00
G01 X1.7104 Y12.1908 F120.00
G01 X1.7099 Y12.1846 F120.00
G01 X1.7099 Y10.6830 F120.00
G01 X1.7102 Y10.6767 F120.00
G01 X1.7111 Y10.6705 F120.00
G01 X1.7127 Y10.6644 F120.00
G01 X1.7148 Y10.6585 F120.00
G01 X1.7175 Y10.6528 F120.00
G01 X1.7207 Y10.6474 F120.00
G01 X1.7276 Y10.6388 F120.00
G01 X1.7321 Y10.6345 F120.00
G01 X1.7371 Y10.6306 F120.00
G01 X1.7424 Y10.6272 F120.00
G01 X1.7480 Y10.6244 F120.00
G01 X1.7539 Y10.6221 F120.00
G01 X1.7615 Y10.6201 F120.00
G01 X1.7677 Y10.6192 F120.00
G01 X1.7740 Y10.6189 F120.00
G01 X3.2740 Y10.6189 F120.00
G01 X3.2803 Y10.6192 F120.00
G01 X3.2880 Y10.6205 F120.00
G01 X3.2941 Y10.6221 F120.00
G01 X3.3000 Y10.6244 F120.00
G01 X3.3083 Y10.6288 F120.00
G01 X3.3159 Y10.6345 F120.00
G01 X3.3225 Y10.6411 F120.00
G01 X3.3273 Y10.6474 F120.00
G01 X3.3313 Y10.6542 F120.00
G01 X3.3349 Y10.6629 F120.00
G01 X3.3372 Y10.6720 F120.00
G01 X3.3380 Y10.6799 F120.00
G01 X3.3381 Y11.4490 F120.00
G01 X7.7108 Y15.8216 F120.00
G01 X11.2619 Y15.8216 F120.00
G01 X11.2619 Y15.5360 F120.00
G01 X11.2626 Y15.5266 F120.00
G01 X11.2647 Y15.5174 F120.00
G01 X11.2687 Y15.5072 F120.00
G01 X11.2736 Y15.4991 F120.00
G01 X11.2796 Y15.4918 F120.00
G01 X11.2878 Y15.4845 F120.00
G01 X11.2958 Y15.4795 F120.00
G01 X11.3044 Y15.4756 F120.00
G01 X11.3135 Y15.4731 F120.00
G01 X11.3197 Y15.4722 F120.00
G01 X11.3260 Y15.4719 F120.00
G01 X13.0260 Y15.4719 F120.00
G01 X13.0338 Y15.4724 F120.00
G01 X13.0431 Y15.4742 F120.00
G01 X13.0520 Y15.4774 F120.00
G01 X13.0616 Y15.4827 F120.00
G01 X13.0702 Y15.4896 F120.00
G01 X13.0765 Y15.4966 F120.00
G01 X13.0818 Y15.5044 F120.00
G01 X13.0864 Y15.5144 F120.00
G01 X13.0889 Y15.5235 F120.00
G01 X13.0901 Y15.5344 F120.00
G01 X13.0901 Y17.2360 F120.00
G01 X13.0898 Y17.2423 F120.00
G01 X13.0885 Y17.2500 F120.00
G01 X13.0869 Y17.2561 F120.00
G01 X13.0846 Y17.2620 F120.00
G01 X13.0802 Y17.2703 F120.00
G01 X13.0745 Y17.2779 F120.00
G01 X13.0679 Y17.2845 F120.00
G01 X13.0616 Y17.2893 F120.00
G01 X13.0534 Y17.2939 F120.00
G01 X13.0446 Y17.2973 F120.00
G01 X13.0370 Y17.2992 F120.00
G01 X13.0276 Y17.3001 F120.00
G01 X11.3260 Y17.3001 F120.00
G01 X11.3150 Y17.2992 F120.00
G01 X11.3044 Y17.2964 F120.00
G01 X11.2958 Y17.2925 F120.00
G01 X11.2878 Y17.2875 F120.00
G01 X11.2796 Y17.2802 F120.00
G01 X11.2736 Y17.2729 F120.00
G01 X11.2687 Y17.2648 F120.00
G01 X11.2647 Y17.2546 F120.00
G01 X11.2626 Y17.2454 F120.00
G01 X11.2619 Y17.2360 F120.00
G01 X11.2619 Y16.9504 F120.00
G01 X7.4770 Y16.9504 F120.00
G01 X7.4217 Y16.9476 F120.00
G01 X7.3669 Y16.9395 F120.00
G01 X7.3132 Y16.9260 F120.00
G01 X7.2596 Y16.9068 F120.00
G01 X7.2110 Y16.8837 F120.00
G01 X7.1635 Y16.8552 F120.00
G01 X7.1190 Y16.8222 F120.00
G01 X7.0779 Y16.7851 F120.00
G01 X2.5400 Y12.2471 F120.00
G01 X1.7740 Y12.2471 F120.00
G00 Z0.5000
G00 X1.7740 Y12.3304
G01 F60.00
G01 Z-0.0800
G01 F120.00
G01 X1.7595 Y12.3297 F120.00
G01 X1.7452 Y12.3276 F120.00
G01 X1.7312 Y12.3241 F120.00
G01 X1.7176 Y12.3192 F120.00
G01 X1.7077 Y12.3147 F120.00
G01 X1.6951 Y12.3076 F120.00
G01 X1.6833 Y12.2992 F120.00
G01 X1.6723 Y12.2898 F120.00
G01 X1.6648 Y12.2820 F120.00
G01 X1.6556 Y12.2708 F120.00
G01 X1.6475 Y12.2588 F120.00
G01 X1.6407 Y12.2460 F120.00
G01 X1.6352 Y12.2327 F120.00
G01 X1.6310 Y12.2188 F120.00
G01 X1.6282 Y12.2046 F120.00
G01 X1.6270 Y12.1938 F120.00
G01 X1.6266 Y12.1830 F120.00
G01 X1.6266 Y10.6794 F120.00
G01 X1.6277 Y10.6650 F120.00
G01 X1.6294 Y10.6542 F120.00
G01 X1.6319 Y10.6437 F120.00
G01 X1.6364 Y10.6299 F120.00
G01 X1.6407 Y10.6200 F120.00
G01 X1.6475 Y10.6072 F120.00
G01 X1.6556 Y10.5952 F120.00
G01 X1.6624 Y10.5867 F120.00
G01 X1.6723 Y10.5762 F120.00
G01 X1.6833 Y10.5668 F120.00
G01 X1.6951 Y10.5584 F120.00
G01 X1.7045 Y10.5530 F120.00
G01 X1.7110 Y10.5497 F120.00
G01 X1.7243 Y10.5442 F120.00
G01 X1.7347 Y10.5409 F120.00
G01 X1.7417 Y10.5392 F120.00
G01 X1.7560 Y10.5367 F120.00
G01 X1.7704 Y10.5356 F120.00
G01 X3.2740 Y10.5356 F120.00
G01 X3.2812 Y10.5357 F120.00
G01 X3.2920 Y10.5367 F120.00
G01 X3.3063 Y10.5392 F120.00
G01 X3.3202 Y10.5430 F120.00
G01 X3.3337 Y10.5482 F120.00
G01 X3.3435 Y10.5530 F120.00
G01 X3.3529 Y10.5584 F120.00
G01 X3.3589 Y10.5625 F120.00
G01 X3.3675 Y10.5690 F120.00
G01 X3.3757 Y10.5762 F120.00
G01 X3.3832 Y10.5840 F120.00
G01 X3.3902 Y10.5923 F120.00
G01 X3.3945 Y10.5981 F120.00
G01 X3.4005 Y10.6072 F120.00
G01 X3.4040 Y10.6135 F120.00
G01 X3.4088 Y10.6233 F120.00
G01 X3.4128 Y10.6333 F120.00
G01 X3.4161 Y10.6437 F120.00
G01 X3.4178 Y10.6507 F120.00
G01 X3.4193 Y10.6578 F120.00
G01 X3.4207 Y10.6685 F120.00
G01 X3.4214 Y10.6830 F120.00
G01 X3.4214 Y11.4145 F120.00
G01 X7.7453 Y15.7383 F120.00
G01 X11.1786 Y15.7383 F120.00
G01 X11.1786 Y15.5324 F120.00
G01 X11.1793 Y15.5215 F120.00
G01 X11.1807 Y15.5108 F120.00
G01 X11.1839 Y15.4967 F120.00
G01 X11.1872 Y15.4863 F120.00
G01 X11.1912 Y15.4763 F120.00
G01 X11.1943 Y15.4697 F120.00
G01 X11.1995 Y15.4602 F120.00
G01 X11.2055 Y15.4511 F120.00
G01 X11.2098 Y15.4453 F120.00
G01 X11.2168 Y15.4370 F120.00
G01 X11.2243 Y15.4292 F120.00
G01 X11.2325 Y15.4220 F120.00
G01 X11.2411 Y15.4155 F120.00
G01 X11.2502 Y15.4095 F120.00
G01 X11.2565 Y15.4060 F120.00
G01 X11.2663 Y15.4012 F120.00
G01 X11.2729 Y15.3984 F120.00
G01 X11.2832 Y15.3949 F120.00
G01 X11.2902 Y15.3930 F120.00
G01 X11.3008 Y15.3907 F120.00
G01 X11.3152 Y15.3890 F120.00
G01 X11.3260 Y15.3886 F120.00
G01 X13.0260 Y15.3886 F120.00
G01 X13.0332 Y15.3887 F120.00
G01 X13.0440 Y15.3897 F120.00
G01 X13.0548 Y15.3914 F120.00
G01 X13.0653 Y15.3939 F120.00
G01 X13.0791 Y15.3984 F120.00
G01 X13.0890 Y15.4027 F120.00
G01 X13.0987 Y15.4077 F120.00
G01 X13.1079 Y15.4134 F120.00
G01 X13.1167 Y15.4198 F120.00
G01 X13.1250 Y15.4268 F120.00
G01 X13.1328 Y15.4343 F120.00
G01 X13.1400 Y15.4425 F120.00
G01 X13.1465 Y15.4511 F120.00
G01 X13.1525 Y15.4602 F120.00
G01 X13.1577 Y15.4697 F120.00
G01 X13.1636 Y15.4829 F120.00
G01 X13.1671 Y15.4932 F120.00
G01 X13.1698 Y15.5037 F120.00
G01 X13.1723 Y15.5180 F120.00
G01 X13.1733 Y15.5288 F120.00
G01 X13.1734 Y17.2360 F120.00
G01 X13.1733 Y17.2432 F120.00
G01 X13.1723 Y17.2540 F120.00
G01 X13.1698 Y17.2683 F120.00
G01 X13.1660 Y17.2822 F120.00
G01 X13.1608 Y17.2957 F120.00
G01 X13.1560 Y17.3055 F120.00
G01 X13.1506 Y17.3149 F120.00
G01 X13.1444 Y17.3238 F120.00
G01 X13.1376 Y17.3323 F120.00
G01 X13.1302 Y17.3402 F120.00
G01 X13.1223 Y17.3476 F120.00
G01 X13.1167 Y17.3522 F120.00
G01 X13.1079 Y17.3586 F120.00
G01 X13.0987 Y17.3643 F120.00
G01 X13.0890 Y17.3693 F120.00
G01 X13.0824 Y17.3722 F120.00
G01 X13.0722 Y17.3760 F120.00
G01 X13.0618 Y17.3790 F120.00
G01 X13.0512 Y17.3813 F120.00
G01 X13.0405 Y17.3827 F120.00
G01 X13.0332 Y17.3833 F120.00
G01 X11.3188 Y17.3833 F120.00
G01 X11.3115 Y17.3827 F120.00
G01 X11.3008 Y17.3813 F120.00
G01 X11.2902 Y17.3790 F120.00
G01 X11.2798 Y17.3760 F120.00
G01 X11.2696 Y17.3722 F120.00
G01 X11.2597 Y17.3677 F120.00
G01 X11.2502 Y17.3625 F120.00
G01 X11.2411 Y17.3565 F120.00
G01 X11.2353 Y17.3522 F120.00
G01 X11.2270 Y17.3452 F120.00
G01 X11.2192 Y17.3377 F120.00
G01 X11.2120 Y17.3295 F120.00
G01 X11.2055 Y17.3209 F120.00
G01 X11.1995 Y17.3118 F120.00
G01 X11.1943 Y17.3023 F120.00
G01 X11.1898 Y17.2924 F120.00
G01 X11.1849 Y17.2788 F120.00
G01 X11.1822 Y17.2683 F120.00
G01 X11.1802 Y17.2576 F120.00
G01 X11.1787 Y17.2432 F120.00
G01 X11.1786 Y17.0337 F120.00
G01 X7.4734 Y17.0336 F120.00
G01 X7.4135 Y17.0306 F120.00
G01 X7.3506 Y17.0212 F120.00
G01 X7.2890 Y17.0058 F120.00
G01 X7.2359 Y16.9870 F120.00
G01 X7.2258 Y16.9830 F120.00
G01 X7.1717 Y16.9572 F120.00
G01 X7.1172 Y16.9245 F120.00
G01 X7.0661 Y16.8867 F120.00
G01 X7.0190 Y16.8440 F120.00
G01 X2.5055 Y12.3304 F120.00
G01 X1.7740 Y12.3304 F120.00
G00 Z0.5000
G00 X7.2673 Y12.2647
G01 F60.00
G01 Z-0.0800
G01 F120.00
G01 X7.2540 Y12.2592 F120.00
G01 X7.1810 Y12.2245 F120.00
G01 X7.1054 Y12.1792 F120.00
G01 X7.0347 Y12.1267 F120.00
G01 X6.9694 Y12.0676 F120.00
G01 X6.9103 Y12.0023 F120.00
G01 X6.8578 Y11.9316 F120.00
G01 X6.8125 Y11.8560 F120.00
G01 X6.7778 Y11.7830 F120.00
G01 X6.7723 Y11.7697 F120.00
G01 X6.7452 Y11.6935 F120.00
G01 X6.7254 Y11.6151 F120.00
G01 X6.7226 Y11.6010 F120.00
G01 X6.7118 Y11.5281 F120.00
G01 X6.7104 Y11.5137 F120.00
G01 X6.7066 Y11.4330 F120.00
G01 X6.7109 Y11.3450 F120.00
G01 X6.7238 Y11.2579 F120.00
G01 X6.7433 Y11.1795 F120.00
G01 X6.7475 Y11.1656 F120.00
G01 X6.7749 Y11.0896 F120.00
G01 X6.8125 Y11.0100 F120.00
G01 X6.8578 Y10.9344 F120.00
G01 X6.9103 Y10.8637 F120.00
G01 X6.9694 Y10.7984 F120.00
G01 X7.0347 Y10.7393 F120.00
G01 X7.1054 Y10.6868 F120.00
G01 X7.1810 Y10.6415 F120.00
G01 X7.2606 Y10.6039 F120.00
G01 X7.3435 Y10.5742 F120.00
G01 X7.4289 Y10.5528 F120.00
G01 X7.5160 Y10.5399 F120.00
G01 X7.6040 Y10.5356 F120.00
G01 X7.6920 Y10.5399 F120.00
G01 X7.7791 Y10.5528 F120.00
G01 X7.8575 Y10.5723 F120.00
G01 X7.8680 Y10.5753 F120.00
G01 X7.9407 Y10.6013 F120.00
G01 X7.9540 Y10.6068 F120.00
G01 X8.0270 Y10.6415 F120.00
G01 X8.0965 Y10.6829 F120.00
G01 X8.1085 Y10.6910 F120.00
G01 X8.1733 Y10.7393 F120.00
G01 X8.2333 Y10.7934 F120.00
G01 X8.2436 Y10.8037 F120.00
G01 X8.2977 Y10.8637 F120.00
G01 X8.3502 Y10.9344 F120.00
G01 X8.3955 Y11.0100 F120.00
G01 X8.4331 Y11.0896 F120.00
G01 X8.4628 Y11.1725 F120.00
G01 X8.4842 Y11.2579 F120.00
G01 X8.4971 Y11.3450 F120.00
G01 X8.5007 Y11.4137 F120.00
G01 X10.2853 Y13.1983 F120.00
G01 X11.4183 Y13.1983 F120.00
G01 X11.4707 Y13.1407 F120.00
G01 X11.5378 Y13.0797 F120.00
G01 X11.5489 Y13.0705 F120.00
G01 X11.6219 Y13.0167 F120.00
G01 X11.6995 Y12.9699 F120.00
G01 X11.7123 Y12.9631 F120.00
G01 X11.7943 Y12.9245 F120.00
G01 X11.8865 Y12.8915 F120.00
G01 X11.9744 Y12.8693 F120.00
G01 X11.9885 Y12.8665 F120.00
G01 X12.0782 Y12.8534 F120.00
G01 X12.1760 Y12.8486 F120.00
G01 X12.2738 Y12.8534 F120.00
G01 X12.3635 Y12.8665 F120.00
G01 X12.3776 Y12.8693 F120.00
G01 X12.4586 Y12.8896 F120.00
G01 X12.4690 Y12.8926 F120.00
G01 X12.5577 Y12.9245 F120.00
G01 X12.6462 Y12.9663 F120.00
G01 X12.7301 Y13.0167 F120.00
G01 X12.8088 Y13.0750 F120.00
G01 X12.8813 Y13.1407 F120.00
G01 X12.9470 Y13.2132 F120.00
G01 X13.0053 Y13.2919 F120.00
G01 X13.0557 Y13.3758 F120.00
G01 X13.0975 Y13.4643 F120.00
G01 X13.1305 Y13.5565 F120.00
G01 X13.1543 Y13.6514 F120.00
G01 X13.1686 Y13.7482 F120.00
G01 X13.1734 Y13.8460 F120.00
G01 X13.1686 Y13.9438 F120.00
G01 X13.1543 Y14.0406 F120.00
G01 X13.1324 Y14.1286 F120.00
G01 X13.1294 Y14.1390 F120.00
G01 X13.0975 Y14.2277 F120.00
G01 X13.0589 Y14.3097 F120.00
G01 X13.0521 Y14.3225 F120.00
G01 X13.0053 Y14.4001 F120.00
G01 X12.9515 Y14.4731 F120.00
G01 X12.9423 Y14.4842 F120.00
G01 X12.8813 Y14.5513 F120.00
G01 X12.8088 Y14.6170 F120.00
G01 X12.7361 Y14.6712 F120.00
G01 X12.7240 Y14.6792 F120.00
G01 X12.6462 Y14.7257 F120.00
G01 X12.5577 Y14.7675 F120.00
G01 X12.4655 Y14.8005 F120.00
G01 X12.3776 Y14.8227 F120.00
G01 X12.3635 Y14.8255 F120.00
G01 X12.2738 Y14.8386 F120.00
G01 X12.1760 Y14.8434 F120.00
G01 X12.0855 Y14.8392 F120.00
G01 X12.0711 Y14.8377 F120.00
G01 X11.9814 Y14.8243 F120.00
G01 X11.8934 Y14.8024 F120.00
G01 X11.8796 Y14.7982 F120.00
G01 X11.7943 Y14.7675 F120.00
G01 X11.7058 Y14.7257 F120.00
G01 X11.6280 Y14.6792 F120.00
G01 X11.6159 Y14.6712 F120.00
G01 X11.5489 Y14.6215 F120.00
G01 X11.5378 Y14.6123 F120.00
G01 X11.4707 Y14.5513 F120.00
G01 X11.4183 Y14.4937 F120.00
G01 X10.0134 Y14.4936 F120.00
G01 X9.9535 Y14.4906 F120.00
G01 X9.8978 Y14.4825 F120.00
G01 X9.8836 Y14.4796 F120.00
G01 X9.8360 Y14.4677 F120.00
G01 X9.8255 Y14.4647 F120.00
G01 X9.7759 Y14.4470 F120.00
G01 X9.7625 Y14.4414 F120.00
G01 X9.7117 Y14.4172 F120.00
G01 X9.6633 Y14.3884 F120.00
G01 X9.6513 Y14.3804 F120.00
G01 X9.6061 Y14.3467 F120.00
G01 X9.5616 Y14.3065 F120.00
G01 X7.5847 Y12.3297 F120.00
G01 X7.5160 Y12.3261 F120.00
G01 X7.4289 Y12.3132 F120.00
G01 X7.3435 Y12.2918 F120.00
G01 X7.2673 Y12.2647 F120.00
G00 Z0.5000
G00 X7.2954 Y12.1863
G01 F60.00
G01 Z-0.0800
G01 F120.00
G01 X7.2896 Y12.1839 F120.00
G01 X7.2202 Y12.1510 F120.00
G01 X7.1517 Y12.1099 F120.00
G01 X7.0875 Y12.0623 F120.00
G01 X7.0283 Y12.0087 F120.00
G01 X6.9747 Y11.9495 F120.00
G01 X6.9271 Y11.8853 F120.00
G01 X6.8860 Y11.8168 F120.00
G01 X6.8531 Y11.7474 F120.00
G01 X6.8507 Y11.7416 F120.00
G01 X6.8250 Y11.6693 F120.00
G01 X6.8062 Y11.5949 F120.00
G01 X6.8050 Y11.5887 F120.00
G01 X6.7942 Y11.5159 F120.00
G01 X6.7936 Y11.5097 F120.00
G01 X6.7899 Y11.4330 F120.00
G01 X6.7938 Y11.3532 F120.00
G01 X6.8055 Y11.2742 F120.00
G01 X6.8241 Y11.1997 F120.00
G01 X6.8259 Y11.1937 F120.00
G01 X6.8519 Y11.1215 F120.00
G01 X6.8860 Y11.0492 F120.00
G01 X6.9271 Y10.9807 F120.00
G01 X6.9747 Y10.9165 F120.00
G01 X7.0283 Y10.8573 F120.00
G01 X7.0875 Y10.8037 F120.00
G01 X7.1517 Y10.7561 F120.00
G01 X7.2202 Y10.7150 F120.00
G01 X7.2925 Y10.6809 F120.00
G01 X7.3677 Y10.6540 F120.00
G01 X7.4452 Y10.6345 F120.00
G01 X7.5242 Y10.6228 F120.00
G01 X7.6040 Y10.6189 F120.00
G01 X7.6838 Y10.6228 F120.00
G01 X7.7628 Y10.6345 F120.00
G01 X7.8418 Y10.6544 F120.00
G01 X7.9155 Y10.6809 F120.00
G01 X7.9850 Y10.7136 F120.00
G01 X7.9905 Y10.7166 F120.00
G01 X8.0536 Y10.7544 F120.00
G01 X8.0589 Y10.7579 F120.00
G01 X8.1205 Y10.8037 F120.00
G01 X8.1797 Y10.8573 F120.00
G01 X8.2333 Y10.9165 F120.00
G01 X8.2791 Y10.9781 F120.00
G01 X8.2826 Y10.9834 F120.00
G01 X8.3204 Y11.0465 F120.00
G01 X8.3234 Y11.0520 F120.00
G01 X8.3561 Y11.1215 F120.00
G01 X8.3830 Y11.1967 F120.00
G01 X8.4025 Y11.2742 F120.00
G01 X8.4138 Y11.3501 F120.00
G01 X8.4144 Y11.3563 F120.00
G01 X8.4180 Y11.4299 F120.00
G01 X8.4174 Y11.4483 F120.00
G01 X10.2508 Y13.2816 F120.00
G01 X11.4578 Y13.2816 F120.00
G01 X11.4704 Y13.2649 F120.00
G01 X11.5308 Y13.1985 F120.00
G01 X11.5961 Y13.1394 F120.00
G01 X11.6682 Y13.0860 F120.00
G01 X11.7424 Y13.0414 F120.00
G01 X11.7479 Y13.0384 F120.00
G01 X11.8262 Y13.0015 F120.00
G01 X11.9107 Y12.9713 F120.00
G01 X11.9946 Y12.9502 F120.00
G01 X12.0008 Y12.9489 F120.00
G01 X12.0864 Y12.9363 F120.00
G01 X12.1760 Y12.9319 F120.00
G01 X12.2656 Y12.9363 F120.00
G01 X12.3512 Y12.9489 F120.00
G01 X12.3574 Y12.9502 F120.00
G01 X12.4413 Y12.9713 F120.00
G01 X12.5258 Y13.0015 F120.00
G01 X12.6069 Y13.0398 F120.00
G01 X12.6838 Y13.0860 F120.00
G01 X12.7559 Y13.1394 F120.00
G01 X12.8224 Y13.1996 F120.00
G01 X12.8826 Y13.2661 F120.00
G01 X12.9360 Y13.3382 F120.00
G01 X12.9822 Y13.4151 F120.00
G01 X13.0205 Y13.4962 F120.00
G01 X13.0507 Y13.5807 F120.00
G01 X13.0725 Y13.6677 F120.00
G01 X13.0857 Y13.7564 F120.00
G01 X13.0901 Y13.8460 F120.00
G01 X13.0857 Y13.9356 F120.00
G01 X13.0725 Y14.0243 F120.00
G01 X13.0503 Y14.1128 F120.00
G01 X13.0205 Y14.1958 F120.00
G01 X12.9836 Y14.2741 F120.00
G01 X12.9806 Y14.2796 F120.00
G01 X12.9360 Y14.3538 F120.00
G01 X12.8845 Y14.4234 F120.00
G01 X12.8806 Y14.4283 F120.00
G01 X12.8224 Y14.4924 F120.00
G01 X12.7559 Y14.5526 F120.00
G01 X12.6864 Y14.6042 F120.00
G01 X12.6812 Y14.6077 F120.00
G01 X12.6069 Y14.6522 F120.00
G01 X12.5258 Y14.6905 F120.00
G01 X12.4413 Y14.7207 F120.00
G01 X12.3574 Y14.7418 F120.00
G01 X12.3512 Y14.7431 F120.00
G01 X12.2640 Y14.7558 F120.00
G01 X12.1791 Y14.7600 F120.00
G01 X12.1729 Y14.7600 F120.00
G01 X12.0864 Y14.7557 F120.00
G01 X12.0008 Y14.7431 F120.00
G01 X11.9946 Y14.7418 F120.00
G01 X11.9107 Y14.7207 F120.00
G01 X11.8262 Y14.6905 F120.00
G01 X11.7479 Y14.6536 F120.00
G01 X11.7424 Y14.6506 F120.00
G01 X11.6682 Y14.6060 F120.00
G01 X11.5986 Y14.5545 F120.00
G01 X11.5937 Y14.5506 F120.00
G01 X11.5296 Y14.4924 F120.00
G01 X11.4704 Y14.4271 F120.00
G01 X11.4578 Y14.4104 F120.00
G01 X10.0154 Y14.4103 F120.00
G01 X9.9617 Y14.4076 F120.00
G01 X9.9100 Y14.4000 F120.00
G01 X9.9038 Y14.3988 F120.00
G01 X9.8517 Y14.3856 F120.00
G01 X9.8040 Y14.3685 F120.00
G01 X9.7982 Y14.3661 F120.00
G01 X9.7510 Y14.3437 F120.00
G01 X9.7061 Y14.3169 F120.00
G01 X9.7009 Y14.3134 F120.00
G01 X9.6590 Y14.2822 F120.00
G01 X9.6191 Y14.2462 F120.00
G01 X7.6193 Y12.2464 F120.00
G01 X7.6024 Y12.2471 F120.00
G01 X7.5258 Y12.2433 F120.00
G01 X7.4467 Y12.2317 F120.00
G01 X7.3677 Y12.2120 F120.00
G01 X7.2954 Y12.1863 F120.00
G00 Z0.5000
G00 X9.3185 Y12.0915
G01 F60.00
G01 Z-0.0800
G01 F120.00
G01 X9.3051 Y12.0860 F120.00
G01 X9.2430 Y12.0566 F120.00
G01 X9.2302 Y12.0498 F120.00
G01 X9.1652 Y12.0106 F120.00
G01 X9.1041 Y11.9655 F120.00
G01 X9.0929 Y11.9563 F120.00
G01 X9.0368 Y11.9052 F120.00
G01 X8.9857 Y11.8491 F120.00
G01 X8.9765 Y11.8379 F120.00
G01 X8.9314 Y11.7768 F120.00
G01 X8.8922 Y11.7118 F120.00
G01 X8.8854 Y11.6990 F120.00
G01 X8.8531 Y11.6303 F120.00
G01 X8.8251 Y11.5520 F120.00
G01 X8.8064 Y11.4784 F120.00
G01 X8.8036 Y11.4642 F120.00
G01 X8.7927 Y11.3891 F120.00
G01 X8.7886 Y11.3060 F120.00
G01 X8.7921 Y11.2302 F120.00
G01 X8.7935 Y11.2158 F120.00
G01 X8.8049 Y11.1407 F120.00
G01 X8.8231 Y11.0670 F120.00
G01 X8.8273 Y11.0531 F120.00
G01 X8.8531 Y10.9817 F120.00
G01 X8.8854 Y10.9130 F120.00
G01 X8.8922 Y10.9002 F120.00
G01 X8.9314 Y10.8352 F120.00
G01 X8.9765 Y10.7741 F120.00
G01 X8.9857 Y10.7629 F120.00
G01 X9.0368 Y10.7068 F120.00
G01 X9.0929 Y10.6557 F120.00
G01 X9.1041 Y10.6465 F120.00
G01 X9.1652 Y10.6014 F120.00
G01 X9.2302 Y10.5622 F120.00
G01 X9.2430 Y10.5554 F120.00
G01 X9.3117 Y10.5231 F120.00
G01 X9.3900 Y10.4951 F120.00
G01 X9.4707 Y10.4749 F120.00
G01 X9.5458 Y10.4635 F120.00
G01 X9.5602 Y10.4621 F120.00
G01 X9.6288 Y10.4587 F120.00
G01 X9.6396 Y10.4586 F120.00
G01 X9.7191 Y10.4627 F120.00
G01 X9.8013 Y10.4749 F120.00
G01 X9.8820 Y10.4951 F120.00
G01 X9.9535 Y10.5205 F120.00
G01 X9.9669 Y10.5260 F120.00
G01 X10.0355 Y10.5586 F120.00
G01 X10.1007 Y10.5975 F120.00
G01 X10.1127 Y10.6056 F120.00
G01 X10.1679 Y10.6465 F120.00
G01 X10.1736 Y10.6509 F120.00
G01 X10.1820 Y10.6583 F120.00
G01 X11.0857 Y10.6583 F120.00
G01 X11.1011 Y10.6413 F120.00
G01 X11.1087 Y10.6335 F120.00
G01 X11.1722 Y10.5760 F120.00
G01 X11.1807 Y10.5692 F120.00
G01 X11.2437 Y10.5224 F120.00
G01 X11.2527 Y10.5163 F120.00
G01 X11.3294 Y10.4704 F120.00
G01 X11.4068 Y10.4336 F120.00
G01 X11.4202 Y10.4281 F120.00
G01 X11.4941 Y10.4016 F120.00
G01 X11.5045 Y10.3984 F120.00
G01 X11.5912 Y10.3768 F120.00
G01 X11.6760 Y10.3640 F120.00
G01 X11.6904 Y10.3626 F120.00
G01 X11.7760 Y10.3586 F120.00
G01 X12.2075 Y10.3586 F120.00
G01 X12.9167 Y9.6493 F120.00
G01 X12.8510 Y9.6726 F120.00
G01 X12.7608 Y9.6952 F120.00
G01 X12.6689 Y9.7089 F120.00
G01 X12.5832 Y9.7133 F120.00
G01 X11.7760 Y9.7134 F120.00
G01 X11.6904 Y9.7094 F120.00
G01 X11.6795 Y9.7085 F120.00
G01 X11.5912 Y9.6952 F120.00
G01 X11.5010 Y9.6726 F120.00
G01 X11.4134 Y9.6413 F120.00
G01 X11.3326 Y9.6032 F120.00
G01 X11.3231 Y9.5980 F120.00
G01 X11.2496 Y9.5538 F120.00
G01 X11.1778 Y9.5006 F120.00
G01 X11.1695 Y9.4936 F120.00
G01 X11.1087 Y9.4385 F120.00
G01 X11.1011 Y9.4307 F120.00
G01 X11.0857 Y9.4137 F120.00
G01 X8.1500 Y9.4137 F120.00
G01 X8.1416 Y9.4211 F120.00
G01 X8.1359 Y9.4255 F120.00
G01 X8.0748 Y9.4706 F120.00
G01 X8.0098 Y9.5098 F120.00
G01 X7.9970 Y9.5166 F120.00
G01 X7.9283 Y9.5489 F120.00
G01 X7.8569 Y9.5747 F120.00
G01 X7.8430 Y9.5789 F120.00
G01 X7.7693 Y9.5971 F120.00
G01 X7.6871 Y9.6093 F120.00
G01 X7.6112 Y9.6133 F120.00
G01 X7.5968 Y9.6133 F120.00
G01 X7.5209 Y9.6093 F120.00
G01 X7.4458 Y9.5984 F120.00
G01 X7.4316 Y9.5956 F120.00
G01 X7.3615 Y9.5779 F120.00
G01 X7.3511 Y9.5747 F120.00
G01 X7.2865 Y9.5515 F120.00
G01 X7.2731 Y9.5460 F120.00
G01 X7.2045 Y9.5134 F120.00
G01 X7.1332 Y9.4706 F120.00
G01 X7.0721 Y9.4255 F120.00
G01 X7.0609 Y9.4163 F120.00
G01 X7.0048 Y9.3652 F120.00
G01 X6.9537 Y9.3091 F120.00
G01 X6.9445 Y9.2979 F120.00
G01 X6.9036 Y9.2427 F120.00
G01 X6.8955 Y9.2307 F120.00
G01 X6.8566 Y9.1655 F120.00
G01 X6.8240 Y9.0969 F120.00
G01 X6.8185 Y9.0835 F120.00
G01 X6.7931 Y9.0120 F120.00
G01 X6.7744 Y8.9384 F120.00
G01 X6.7716 Y8.9242 F120.00
G01 X6.7607 Y8.8491 F120.00
G01 X6.7567 Y8.7732 F120.00
G01 X6.7567 Y8.7588 F120.00
G01 X6.7607 Y8.6829 F120.00
G01 X6.7729 Y8.6007 F120.00
G01 X6.7911 Y8.5270 F120.00
G01 X6.7953 Y8.5131 F120.00
G01 X6.8211 Y8.4417 F120.00
G01 X6.8534 Y8.3730 F120.00
G01 X6.8602 Y8.3602 F120.00
G01 X6.8994 Y8.2952 F120.00
G01 X6.9489 Y8.2284 F120.00
G01 X6.9998 Y8.1720 F120.00
G01 X7.0100 Y8.1618 F120.00
G01 X7.0664 Y8.1109 F120.00
G01 X7.1302 Y8.0634 F120.00
G01 X7.1393 Y8.0575 F120.00
G01 X7.1982 Y8.0222 F120.00
G01 X7.2110 Y8.0154 F120.00
G01 X7.2797 Y7.9831 F120.00
G01 X7.3580 Y7.9551 F120.00
G01 X7.4387 Y7.9349 F120.00
G01 X7.5138 Y7.9235 F120.00
G01 X7.5282 Y7.9221 F120.00
G01 X7.5968 Y7.9187 F120.00
G01 X7.6076 Y7.9186 F120.00
G01 X7.6871 Y7.9227 F120.00
G01 X7.7693 Y7.9349 F120.00
G01 X7.8500 Y7.9551 F120.00
G01 X7.9215 Y7.9805 F120.00
G01 X7.9349 Y7.9860 F120.00
G01 X8.0035 Y8.0186 F120.00
G01 X8.0687 Y8.0575 F120.00
G01 X8.0807 Y8.0656 F120.00
G01 X8.1359 Y8.1065 F120.00
G01 X8.1416 Y8.1109 F120.00
G01 X8.1500 Y8.1183 F120.00
G01 X11.0857 Y8.1183 F120.00
G01 X11.1011 Y8.1013 F120.00
G01 X11.1087 Y8.0935 F120.00
G01 X11.1695 Y8.0384 F120.00
G01 X11.1778 Y8.0314 F120.00
G01 X11.2496 Y7.9782 F120.00
G01 X11.3262 Y7.9322 F120.00
G01 X11.3358 Y7.9272 F120.00
G01 X11.4134 Y7.8907 F120.00
G01 X11.4941 Y7.8616 F120.00
G01 X11.5079 Y7.8574 F120.00
G01 X11.5841 Y7.8384 F120.00
G01 X11.5947 Y7.8361 F120.00
G01 X11.6831 Y7.8231 F120.00
G01 X11.7760 Y7.8186 F120.00
G01 X12.5796 Y7.8186 F120.00
G01 X12.6689 Y7.8231 F120.00
G01 X12.7573 Y7.8361 F120.00
G01 X12.7679 Y7.8384 F120.00
G01 X12.8510 Y7.8594 F120.00
G01 X12.9386 Y7.8907 F120.00
G01 X13.0226 Y7.9304 F120.00
G01 X13.0963 Y7.9744 F120.00
G01 X13.1083 Y7.9824 F120.00
G01 X13.1770 Y8.0336 F120.00
G01 X13.2407 Y8.0911 F120.00
G01 X13.2509 Y8.1013 F120.00
G01 X13.3036 Y8.1595 F120.00
G01 X13.3128 Y8.1707 F120.00
G01 X13.3638 Y8.2396 F120.00
G01 X13.4098 Y8.3162 F120.00
G01 X13.4148 Y8.3258 F120.00
G01 X13.4513 Y8.4034 F120.00
G01 X13.4826 Y8.4910 F120.00
G01 X13.5052 Y8.5812 F120.00
G01 X13.5180 Y8.6660 F120.00
G01 X13.5192 Y8.6767 F120.00
G01 X13.5234 Y8.7660 F120.00
G01 X13.5194 Y8.8516 F120.00
G01 X13.5180 Y8.8660 F120.00
G01 X13.5065 Y8.9437 F120.00
G01 X13.5036 Y8.9579 F120.00
G01 X13.4826 Y9.0410 F120.00
G01 X13.4593 Y9.1067 F120.00
G01 X18.5198 Y4.0463 F120.00
G01 X18.4894 Y3.9610 F120.00
G01 X18.4668 Y3.8708 F120.00
G01 X18.4531 Y3.7789 F120.00
G01 X18.4487 Y3.6932 F120.00
G01 X18.4487 Y3.6788 F120.00
G01 X18.4526 Y3.6004 F120.00
G01 X18.4540 Y3.5860 F120.00
G01 X18.4668 Y3.5012 F120.00
G01 X18.4894 Y3.4110 F120.00
G01 X18.5207 Y3.3234 F120.00
G01 X18.5572 Y3.2458 F120.00
G01 X18.5640 Y3.2331 F120.00
G01 X18.6044 Y3.1657 F120.00
G01 X18.6124 Y3.1537 F120.00
G01 X18.6636 Y3.0850 F120.00
G01 X18.7261 Y3.0161 F120.00
G01 X18.7950 Y2.9536 F120.00
G01 X18.8696 Y2.8982 F120.00
G01 X18.9494 Y2.8504 F120.00
G01 X19.0268 Y2.8136 F120.00
G01 X19.0402 Y2.8081 F120.00
G01 X19.1210 Y2.7794 F120.00
G01 X19.2041 Y2.7584 F120.00
G01 X19.2183 Y2.7555 F120.00
G01 X19.2995 Y2.7435 F120.00
G01 X19.3104 Y2.7426 F120.00
G01 X19.3960 Y2.7386 F120.00
G01 X20.2032 Y2.7387 F120.00
G01 X20.2889 Y2.7431 F120.00
G01 X20.3808 Y2.7568 F120.00
G01 X20.4710 Y2.7794 F120.00
G01 X20.5518 Y2.8081 F120.00
G01 X20.5619 Y2.8121 F120.00
G01 X20.6426 Y2.8504 F120.00
G01 X20.7163 Y2.8944 F120.00
G01 X20.7253 Y2.9003 F120.00
G01 X20.7913 Y2.9492 F120.00
G01 X20.7998 Y2.9560 F120.00
G01 X20.8633 Y3.0135 F120.00
G01 X20.8709 Y3.0213 F120.00
G01 X20.8863 Y3.0383 F120.00
G01 X21.7900 Y3.0383 F120.00
G01 X21.7984 Y3.0309 F120.00
G01 X21.8041 Y3.0265 F120.00
G01 X21.8652 Y2.9814 F120.00
G01 X21.9302 Y2.9422 F120.00
G01 X21.9430 Y2.9354 F120.00
G01 X22.0117 Y2.9031 F120.00
G01 X22.0831 Y2.8773 F120.00
G01 X22.0970 Y2.8731 F120.00
G01 X22.1707 Y2.8549 F120.00
G01 X22.2458 Y2.8435 F120.00
G01 X22.2602 Y2.8421 F120.00
G01 X22.3360 Y2.8386 F120.00
G01 X22.4118 Y2.8421 F120.00
G01 X22.4262 Y2.8435 F120.00
G01 X22.5013 Y2.8549 F120.00
G01 X22.5750 Y2.8731 F120.00
G01 X22.5854 Y2.8762 F120.00
G01 X22.6535 Y2.9005 F120.00
G01 X22.6669 Y2.9060 F120.00
G01 X22.7355 Y2.9386 F120.00
G01 X22.8007 Y2.9775 F120.00
G01 X22.8127 Y2.9856 F120.00
G01 X22.8736 Y3.0309 F120.00
G01 X22.9300 Y3.0818 F120.00
G01 X22.9402 Y3.0920 F120.00
G01 X22.9911 Y3.1484 F120.00
G01 X23.0406 Y3.2152 F120.00
G01 X23.0834 Y3.2865 F120.00
G01 X23.1160 Y3.3551 F120.00
G01 X23.1215 Y3.3685 F120.00
G01 X23.1469 Y3.4400 F120.00
G01 X23.1656 Y3.5136 F120.00
G01 X23.1684 Y3.5278 F120.00
G01 X23.1785 Y3.5958 F120.00
G01 X23.1793 Y3.6029 F120.00
G01 X23.1801 Y3.6141 F120.00
G01 X25.3365 Y5.7706 F120.00
G01 X25.3767 Y5.8151 F120.00
G01 X25.4104 Y5.8603 F120.00
G01 X25.4184 Y5.8723 F120.00
G01 X25.4472 Y5.9207 F120.00
G01 X25.4714 Y5.9715 F120.00
G01 X25.4770 Y5.9849 F120.00
G01 X25.4935 Y6.0311 F120.00
G01 X25.4977 Y6.0450 F120.00
G01 X25.5096 Y6.0926 F120.00
G01 X25.5125 Y6.1068 F120.00
G01 X25.5206 Y6.1625 F120.00
G01 X25.5237 Y6.2260 F120.00
G01 X25.5237 Y10.3086 F120.00
G01 X25.7296 Y10.3086 F120.00
G01 X25.7405 Y10.3093 F120.00
G01 X25.7512 Y10.3107 F120.00
G01 X25.7618 Y10.3130 F120.00
G01 X25.7722 Y10.3160 F120.00
G01 X25.7824 Y10.3198 F120.00
G01 X25.7890 Y10.3227 F120.00
G01 X25.7987 Y10.3277 F120.00
G01 X25.8079 Y10.3334 F120.00
G01 X25.8167 Y10.3398 F120.00
G01 X25.8250 Y10.3468 F120.00
G01 X25.8328 Y10.3543 F120.00
G01 X25.8376 Y10.3597 F120.00
G01 X25.8444 Y10.3682 F120.00
G01 X25.8486 Y10.3741 F120.00
G01 X25.8543 Y10.3833 F120.00
G01 X25.8593 Y10.3930 F120.00
G01 X25.8622 Y10.3996 F120.00
G01 X25.8660 Y10.4098 F120.00
G01 X25.8681 Y10.4167 F120.00
G01 X25.8706 Y10.4272 F120.00
G01 X25.8727 Y10.4415 F120.00
G01 X25.8734 Y10.4560 F120.00
G01 X25.8734 Y12.1560 F120.00
G01 X25.8730 Y12.1668 F120.00
G01 X25.8718 Y12.1776 F120.00
G01 X25.8690 Y12.1918 F120.00
G01 X25.8648 Y12.2057 F120.00
G01 X25.8608 Y12.2157 F120.00
G01 X25.8543 Y12.2287 F120.00
G01 X25.8465 Y12.2409 F120.00
G01 X25.8400 Y12.2495 F120.00
G01 X25.8328 Y12.2577 F120.00
G01 X25.8223 Y12.2676 F120.00
G01 X25.8109 Y12.2765 F120.00
G01 X25.7987 Y12.2843 F120.00
G01 X25.7890 Y12.2893 F120.00
G01 X25.7757 Y12.2948 F120.00
G01 X25.7653 Y12.2981 F120.00
G01 X25.7512 Y12.3013 F120.00
G01 X25.7405 Y12.3027 F120.00
G01 X25.7260 Y12.3034 F120.00
G01 X24.0188 Y12.3033 F120.00
G01 X24.0080 Y12.3023 F120.00
G01 X23.9972 Y12.3006 F120.00
G01 X23.9832 Y12.2971 F120.00
G01 X23.9729 Y12.2936 F120.00
G01 X23.9630 Y12.2893 F120.00
G01 X23.9533 Y12.2843 F120.00
G01 X23.9441 Y12.2786 F120.00
G01 X23.9353 Y12.2722 F120.00
G01 X23.9270 Y12.2652 F120.00
G01 X23.9192 Y12.2577 F120.00
G01 X23.9120 Y12.2495 F120.00
G01 X23.9034 Y12.2379 F120.00
G01 X23.8977 Y12.2287 F120.00
G01 X23.8927 Y12.2190 F120.00
G01 X23.8884 Y12.2091 F120.00
G01 X23.8839 Y12.1953 F120.00
G01 X23.8814 Y12.1848 F120.00
G01 X23.8797 Y12.1740 F120.00
G01 X23.8787 Y12.1632 F120.00
G01 X23.8786 Y12.1560 F120.00
G01 X23.8786 Y10.4560 F120.00
G01 X23.8790 Y10.4452 F120.00
G01 X23.8807 Y10.4308 F120.00
G01 X23.8822 Y10.4237 F120.00
G01 X23.8849 Y10.4132 F120.00
G01 X23.8884 Y10.4029 F120.00
G01 X23.8912 Y10.3963 F120.00
G01 X23.8960 Y10.3865 F120.00
G01 X23.9014 Y10.3771 F120.00
G01 X23.9076 Y10.3682 F120.00
G01 X23.9120 Y10.3625 F120.00
G01 X23.9192 Y10.3543 F120.00
G01 X23.9243 Y10.3492 F120.00
G01 X23.9325 Y10.3420 F120.00
G01 X23.9411 Y10.3355 F120.00
G01 X23.9502 Y10.3295 F120.00
G01 X23.9565 Y10.3260 F120.00
G01 X23.9663 Y10.3212 F120.00
G01 X23.9763 Y10.3172 F120.00
G01 X23.9867 Y10.3139 F120.00
G01 X23.9972 Y10.3114 F120.00
G01 X24.0080 Y10.3097 F120.00
G01 X24.0224 Y10.3086 F120.00
G01 X24.2283 Y10.3086 F120.00
G01 X24.2283 Y6.4943 F120.00
G01 X22.2641 Y4.5301 F120.00
G01 X22.2529 Y4.5293 F120.00
G01 X22.2458 Y4.5285 F120.00
G01 X22.1778 Y4.5184 F120.00
G01 X22.1636 Y4.5156 F120.00
G01 X22.0900 Y4.4969 F120.00
G01 X22.0117 Y4.4689 F120.00
G01 X21.9365 Y4.4334 F120.00
G01 X21.8713 Y4.3945 F120.00
G01 X21.8593 Y4.3864 F120.00
G01 X21.8041 Y4.3455 F120.00
G01 X21.7984 Y4.3411 F120.00
G01 X21.7900 Y4.3337 F120.00
G01 X20.8863 Y4.3337 F120.00
G01 X20.8709 Y4.3507 F120.00
G01 X20.8633 Y4.3585 F120.00
G01 X20.7998 Y4.4160 F120.00
G01 X20.7913 Y4.4228 F120.00
G01 X20.7283 Y4.4696 F120.00
G01 X20.7193 Y4.4757 F120.00
G01 X20.6426 Y4.5216 F120.00
G01 X20.5652 Y4.5584 F120.00
G01 X20.5518 Y4.5639 F120.00
G01 X20.4779 Y4.5904 F120.00
G01 X20.4675 Y4.5936 F120.00
G01 X20.3808 Y4.6152 F120.00
G01 X20.2960 Y4.6280 F120.00
G01 X20.2816 Y4.6294 F120.00
G01 X20.1960 Y4.6334 F120.00
G01 X19.7645 Y4.6334 F120.00
G01 X19.0553 Y5.3427 F120.00
G01 X19.1210 Y5.3194 F120.00
G01 X19.2112 Y5.2968 F120.00
G01 X19.3031 Y5.2831 F120.00
G01 X19.3924 Y5.2786 F120.00
G01 X20.2032 Y5.2787 F120.00
G01 X20.2889 Y5.2831 F120.00
G01 X20.3737 Y5.2955 F120.00
G01 X20.3879 Y5.2984 F120.00
G01 X20.4641 Y5.3174 F120.00
G01 X20.4745 Y5.3205 F120.00
G01 X20.5586 Y5.3507 F120.00
G01 X20.6362 Y5.3872 F120.00
G01 X20.6489 Y5.3940 F120.00
G01 X20.7224 Y5.4382 F120.00
G01 X20.7913 Y5.4892 F120.00
G01 X20.8025 Y5.4984 F120.00
G01 X20.8659 Y5.5561 F120.00
G01 X20.9236 Y5.6195 F120.00
G01 X20.9328 Y5.6307 F120.00
G01 X20.9838 Y5.6996 F120.00
G01 X21.0280 Y5.7731 F120.00
G01 X21.0348 Y5.7858 F120.00
G01 X21.0713 Y5.8634 F120.00
G01 X21.1004 Y5.9441 F120.00
G01 X21.1046 Y5.9579 F120.00
G01 X21.1252 Y6.0412 F120.00
G01 X21.1389 Y6.1331 F120.00
G01 X21.1434 Y6.2260 F120.00
G01 X21.1389 Y6.3189 F120.00
G01 X21.1252 Y6.4108 F120.00
G01 X21.1026 Y6.5010 F120.00
G01 X21.0713 Y6.5886 F120.00
G01 X21.0316 Y6.6726 F120.00
G01 X20.9857 Y6.7493 F120.00
G01 X20.9796 Y6.7583 F120.00
G01 X20.9284 Y6.8270 F120.00
G01 X20.8659 Y6.8959 F120.00
G01 X20.7970 Y6.9584 F120.00
G01 X20.7253 Y7.0117 F120.00
G01 X20.7163 Y7.0176 F120.00
G01 X20.6426 Y7.0616 F120.00
G01 X20.5619 Y7.0999 F120.00
G01 X20.5518 Y7.1039 F120.00
G01 X20.4745 Y7.1315 F120.00
G01 X20.4675 Y7.1336 F120.00
G01 X20.4437 Y7.1397 F120.00
G01 X20.4437 Y7.8523 F120.00
G01 X20.4675 Y7.8584 F120.00
G01 X20.4745 Y7.8605 F120.00
G01 X20.5518 Y7.8881 F120.00
G01 X20.5619 Y7.8921 F120.00
G01 X20.6426 Y7.9304 F120.00
G01 X20.7163 Y7.9744 F120.00
G01 X20.7283 Y7.9824 F120.00
G01 X20.7913 Y8.0292 F120.00
G01 X20.7998 Y8.0360 F120.00
G01 X20.8633 Y8.0935 F120.00
G01 X20.8709 Y8.1013 F120.00
G01 X20.8863 Y8.1183 F120.00
G01 X21.7900 Y8.1183 F120.00
G01 X21.7984 Y8.1109 F120.00
G01 X21.8041 Y8.1065 F120.00
G01 X21.8652 Y8.0614 F120.00
G01 X21.9302 Y8.0222 F120.00
G01 X21.9430 Y8.0154 F120.00
G01 X22.0117 Y7.9831 F120.00
G01 X22.0831 Y7.9573 F120.00
G01 X22.0970 Y7.9531 F120.00
G01 X22.1707 Y7.9349 F120.00
G01 X22.2529 Y7.9227 F120.00
G01 X22.3288 Y7.9187 F120.00
G01 X22.3432 Y7.9187 F120.00
G01 X22.4191 Y7.9227 F120.00
G01 X22.4942 Y7.9336 F120.00
G01 X22.5084 Y7.9364 F120.00
G01 X22.5820 Y7.9551 F120.00
G01 X22.6535 Y7.9805 F120.00
G01 X22.6669 Y7.9860 F120.00
G01 X22.7355 Y8.0186 F120.00
G01 X22.8068 Y8.0614 F120.00
G01 X22.8736 Y8.1109 F120.00
G01 X22.9300 Y8.1618 F120.00
G01 X22.9402 Y8.1720 F120.00
G01 X22.9911 Y8.2284 F120.00
G01 X23.0364 Y8.2893 F120.00
G01 X23.0445 Y8.3013 F120.00
G01 X23.0834 Y8.3665 F120.00
G01 X23.1189 Y8.4417 F120.00
G01 X23.1469 Y8.5200 F120.00
G01 X23.1656 Y8.5936 F120.00
G01 X23.1684 Y8.6078 F120.00
G01 X23.1785 Y8.6758 F120.00
G01 X23.1797 Y8.6865 F120.00
G01 X23.1834 Y8.7660 F120.00
G01 X23.1793 Y8.8491 F120.00
G01 X23.1671 Y8.9313 F120.00
G01 X23.1469 Y9.0120 F120.00
G01 X23.1189 Y9.0903 F120.00
G01 X23.0834 Y9.1655 F120.00
G01 X23.0406 Y9.2368 F120.00
G01 X22.9955 Y9.2979 F120.00
G01 X22.9911 Y9.3036 F120.00
G01 X22.9837 Y9.3120 F120.00
G01 X22.9836 Y12.4056 F120.00
G01 X22.9806 Y12.4655 F120.00
G01 X22.9712 Y12.5284 F120.00
G01 X22.9558 Y12.5900 F120.00
G01 X22.9370 Y12.6431 F120.00
G01 X22.9314 Y12.6565 F120.00
G01 X22.9072 Y12.7073 F120.00
G01 X22.8745 Y12.7618 F120.00
G01 X22.8367 Y12.8129 F120.00
G01 X22.7965 Y12.8574 F120.00
G01 X20.8221 Y14.8318 F120.00
G01 X20.8233 Y14.8548 F120.00
G01 X20.8234 Y14.8656 F120.00
G01 X20.8194 Y14.9476 F120.00
G01 X20.8185 Y14.9585 F120.00
G01 X20.8052 Y15.0468 F120.00
G01 X20.7836 Y15.1335 F120.00
G01 X20.7804 Y15.1439 F120.00
G01 X20.7539 Y15.2178 F120.00
G01 X20.7484 Y15.2312 F120.00
G01 X20.7116 Y15.3086 F120.00
G01 X20.6676 Y15.3823 F120.00
G01 X20.6596 Y15.3943 F120.00
G01 X20.6128 Y15.4573 F120.00
G01 X20.6036 Y15.4685 F120.00
G01 X20.5459 Y15.5319 F120.00
G01 X20.4798 Y15.5920 F120.00
G01 X20.4713 Y15.5988 F120.00
G01 X20.4083 Y15.6456 F120.00
G01 X20.3993 Y15.6517 F120.00
G01 X20.3258 Y15.6958 F120.00
G01 X20.3162 Y15.7008 F120.00
G01 X20.2876 Y15.7143 F120.00
G01 X20.6649 Y15.7143 F120.00
G01 X20.7774 Y15.6018 F120.00
G01 X20.9044 Y15.4117 F120.00
G01 X20.9919 Y15.2005 F120.00
G01 X21.0346 Y14.9857 F120.00
G01 X21.0402 Y14.9631 F120.00
G01 X21.0434 Y14.9527 F120.00
G01 X21.0517 Y14.9309 F120.00
G01 X21.0601 Y14.9131 F120.00
G01 X21.0635 Y14.9067 F120.00
G01 X21.0736 Y14.8898 F120.00
G01 X21.0777 Y14.8838 F120.00
G01 X21.0894 Y14.8680 F120.00
G01 X21.0940 Y14.8624 F120.00
G01 X21.1098 Y14.8452 F120.00
G01 X22.9050 Y13.0499 F120.00
G01 X22.9222 Y13.0341 F120.00
G01 X22.9474 Y13.0134 F120.00
G01 X23.0549 Y12.8824 F120.00
G01 X23.1349 Y12.7329 F120.00
G01 X23.1841 Y12.5707 F120.00
G01 X23.1972 Y12.4367 F120.00
G01 X23.2000 Y12.4172 F120.00
G01 X23.2020 Y12.4066 F120.00
G01 X23.2067 Y12.3874 F120.00
G01 X23.2100 Y12.3771 F120.00
G01 X23.2168 Y12.3586 F120.00
G01 X23.2283 Y12.3342 F120.00
G01 X23.2383 Y12.3173 F120.00
G01 X23.2442 Y12.3082 F120.00
G01 X23.2582 Y12.2895 F120.00
G01 X23.2763 Y12.2695 F120.00
G01 X23.2908 Y12.2562 F120.00
G01 X23.3020 Y12.2470 F120.00
G01 X23.3210 Y12.2334 F120.00
G01 X23.3379 Y12.2233 F120.00
G01 X23.3475 Y12.2183 F120.00
G01 X23.3654 Y12.2100 F120.00
G01 X23.3839 Y12.2032 F120.00
G01 X23.3942 Y12.2000 F120.00
G01 X23.4133 Y12.1952 F120.00
G01 X23.4240 Y12.1932 F120.00
G01 X23.4435 Y12.1905 F120.00
G01 X23.4632 Y12.1893 F120.00
G01 X23.4740 Y12.1892 F120.00
G01 X23.4937 Y12.1902 F120.00
G01 X23.5045 Y12.1914 F120.00
G01 X23.5240 Y12.1944 F120.00
G01 X23.5431 Y12.1990 F120.00
G01 X23.5536 Y12.2021 F120.00
G01 X23.5721 Y12.2087 F120.00
G01 X23.5821 Y12.2130 F120.00
G01 X23.5998 Y12.2216 F120.00
G01 X23.6229 Y12.2354 F120.00
G01 X23.6446 Y12.2515 F120.00
G01 X23.6645 Y12.2695 F120.00
G01 X23.6826 Y12.2895 F120.00
G01 X23.6966 Y12.3082 F120.00
G01 X23.7006 Y12.3142 F120.00
G01 X23.7108 Y12.3311 F120.00
G01 X23.7248 Y12.3573 F120.00
G01 X23.7699 Y12.4121 F120.00
G01 X23.8247 Y12.4572 F120.00
G01 X23.8874 Y12.4907 F120.00
G01 X23.9553 Y12.5113 F120.00
G01 X24.0395 Y12.5196 F120.00
G01 X25.7125 Y12.5196 F120.00
G01 X25.7967 Y12.5113 F120.00
G01 X25.8646 Y12.4907 F120.00
G01 X25.9273 Y12.4572 F120.00
G01 X25.9821 Y12.4121 F120.00
G01 X26.0272 Y12.3573 F120.00
G01 X26.0607 Y12.2946 F120.00
G01 X26.0813 Y12.2267 F120.00
G01 X26.0896 Y12.1425 F120.00
G01 X26.0896 Y10.4695 F120.00
G01 X26.0813 Y10.3853 F120.00
G01 X26.0607 Y10.3174 F120.00
G01 X26.0272 Y10.2547 F120.00
G01 X25.9821 Y10.1999 F120.00
G01 X25.9273 Y10.1548 F120.00
G01 X25.8753 Y10.1268 F120.00
G01 X25.8585 Y10.1165 F120.00
G01 X25.8397 Y10.1028 F120.00
G01 X25.8314 Y10.0958 F120.00
G01 X25.8144 Y10.0798 F120.00
G01 X25.7988 Y10.0625 F120.00
G01 X25.7848 Y10.0438 F120.00
G01 X25.7725 Y10.0240 F120.00
G01 X25.7673 Y10.0145 F120.00
G01 X25.7574 Y9.9934 F120.00
G01 X25.7506 Y9.9749 F120.00
G01 X25.7473 Y9.9645 F120.00
G01 X25.7418 Y9.9419 F120.00
G01 X25.7382 Y9.9188 F120.00
G01 X25.7373 Y9.9080 F120.00
G01 X25.7365 Y9.8883 F120.00
G01 X25.7365 Y6.2817 F120.00
G01 X25.7375 Y6.2584 F120.00
G01 X25.7407 Y6.2260 F120.00
G01 X25.7241 Y6.0573 F120.00
G01 X25.6749 Y5.8951 F120.00
G01 X25.5949 Y5.7456 F120.00
G01 X25.4874 Y5.6146 F120.00
G01 X25.4622 Y5.5939 F120.00
G01 X25.4450 Y5.5781 F120.00
G01 X23.4425 Y3.5755 F120.00
G01 X23.4291 Y3.5611 F120.00
G01 X23.4199 Y3.5499 F120.00
G01 X23.4064 Y3.5309 F120.00
G01 X23.3945 Y3.5108 F120.00
G01 X23.3830 Y3.4865 F120.00
G01 X23.3739 Y3.4611 F120.00
G01 X23.3689 Y3.4421 F120.00
G01 X23.3558 Y3.3767 F120.00
G01 X23.2758 Y3.1837 F120.00
G01 X23.1597 Y3.0100 F120.00
G01 X23.0120 Y2.8623 F120.00
G01 X22.8383 Y2.7462 F120.00
G01 X22.6453 Y2.6662 F120.00
G01 X22.4405 Y2.6255 F120.00
G01 X22.2315 Y2.6255 F120.00
G01 X22.0267 Y2.6662 F120.00
G01 X21.8337 Y2.7462 F120.00
G01 X21.7781 Y2.7831 F120.00
G01 X21.7611 Y2.7931 F120.00
G01 X21.7401 Y2.8032 F120.00
G01 X21.7300 Y2.8072 F120.00
G01 X21.7114 Y2.8137 F120.00
G01 X21.6923 Y2.8186 F120.00
G01 X21.6817 Y2.8209 F120.00
G01 X21.6586 Y2.8242 F120.00
G01 X21.6317 Y2.8255 F120.00
G01 X21.0750 Y2.8255 F120.00
G01 X21.0553 Y2.8247 F120.00
G01 X21.0445 Y2.8238 F120.00
G01 X21.0250 Y2.8209 F120.00
G01 X21.0179 Y2.8195 F120.00
G01 X20.9988 Y2.8147 F120.00
G01 X20.9884 Y2.8114 F120.00
G01 X20.9700 Y2.8046 F120.00
G01 X20.9456 Y2.7931 F120.00
G01 X20.9225 Y2.7792 F120.00
G01 X20.9066 Y2.7676 F120.00
G01 X20.8439 Y2.7164 F120.00
G01 X20.6423 Y2.6086 F120.00
G01 X20.4235 Y2.5423 F120.00
G01 X20.2530 Y2.5255 F120.00
G01 X19.3390 Y2.5255 F120.00
G01 X19.1685 Y2.5423 F120.00
G01 X18.9497 Y2.6086 F120.00
G01 X18.7481 Y2.7164 F120.00
G01 X18.5714 Y2.8614 F120.00
G01 X18.4264 Y3.0381 F120.00
G01 X18.3186 Y3.2397 F120.00
G01 X18.2523 Y3.4585 F120.00
G01 X18.2299 Y3.6860 F120.00
G01 X18.2488 Y3.8783 F120.00
G01 X18.2497 Y3.8980 F120.00
G01 X18.2497 Y3.9052 F120.00
G01 X18.2488 Y3.9249 F120.00
G01 X18.2481 Y3.9321 F120.00
G01 X18.2445 Y3.9551 F120.00
G01 X18.2380 Y3.9813 F120.00
G01 X18.2289 Y4.0066 F120.00
G01 X18.2206 Y4.0245 F120.00
G01 X18.2138 Y4.0373 F120.00
G01 X18.2015 Y4.0571 F120.00
G01 X18.1875 Y4.0757 F120.00
G01 X18.1719 Y4.0931 F120.00
G01 X14.0142 Y8.2508 F120.00
G01 X13.9996 Y8.2641 F120.00
G01 X13.9911 Y8.2708 F120.00
G01 X13.9752 Y8.2824 F120.00
G01 X13.9584 Y8.2927 F120.00
G01 X13.9488 Y8.2980 F120.00
G01 X13.9310 Y8.3064 F120.00
G01 X13.9210 Y8.3104 F120.00
G01 X13.9023 Y8.3169 F120.00
G01 X13.8833 Y8.3218 F120.00
G01 X13.8727 Y8.3241 F120.00
G01 X13.8532 Y8.3270 F120.00
G01 X13.8424 Y8.3279 F120.00
G01 X13.8227 Y8.3287 F120.00
G01 X13.8030 Y8.3279 F120.00
G01 X13.7922 Y8.3270 F120.00
G01 X13.7727 Y8.3241 F120.00
G01 X13.7500 Y8.3188 F120.00
G01 X13.7361 Y8.3146 F120.00
G01 X13.7176 Y8.3078 F120.00
G01 X13.6933 Y8.2963 F120.00
G01 X13.6702 Y8.2824 F120.00
G01 X13.6542 Y8.2708 F120.00
G01 X13.6430 Y8.2617 F120.00
G01 X13.6260 Y8.2457 F120.00
G01 X13.6128 Y8.2311 F120.00
G01 X13.6082 Y8.2255 F120.00
G01 X13.5965 Y8.2097 F120.00
G01 X13.5925 Y8.2037 F120.00
G01 X13.5806 Y8.1836 F120.00
G01 X13.5456 Y8.1181 F120.00
G01 X13.4006 Y7.9414 F120.00
G01 X13.2239 Y7.7964 F120.00
G01 X13.1147 Y7.7381 F120.00
G01 X13.0978 Y7.7281 F120.00
G01 X13.0887 Y7.7222 F120.00
G01 X13.0728 Y7.7104 F120.00
G01 X13.0672 Y7.7059 F120.00
G01 X13.0526 Y7.6926 F120.00
G01 X13.0367 Y7.6756 F120.00
G01 X13.0275 Y7.6644 F120.00
G01 X13.0159 Y7.6485 F120.00
G01 X13.0021 Y7.6254 F120.00
G01 X12.9905 Y7.6010 F120.00
G01 X12.9837 Y7.5826 F120.00
G01 X12.9795 Y7.5687 F120.00
G01 X12.9743 Y7.5460 F120.00
G01 X12.9714 Y7.5265 F120.00
G01 X12.9707 Y7.5193 F120.00
G01 X12.9697 Y7.4996 F120.00
G01 X12.9698 Y7.4888 F120.00
G01 X12.9710 Y7.4691 F120.00
G01 X12.9737 Y7.4496 F120.00
G01 X12.9757 Y7.4389 F120.00
G01 X12.9805 Y7.4198 F120.00
G01 X12.9837 Y7.4094 F120.00
G01 X12.9905 Y7.3910 F120.00
G01 X13.0021 Y7.3666 F120.00
G01 X13.0159 Y7.3435 F120.00
G01 X13.0275 Y7.3276 F120.00
G01 X13.0343 Y7.3191 F120.00
G01 X13.0500 Y7.3019 F120.00
G01 X13.0645 Y7.2885 F120.00
G01 X13.0728 Y7.2816 F120.00
G01 X13.0916 Y7.2678 F120.00
G01 X13.1147 Y7.2539 F120.00
G01 X13.2239 Y7.1956 F120.00
G01 X13.4006 Y7.0506 F120.00
G01 X13.5456 Y6.8739 F120.00
G01 X13.6534 Y6.6723 F120.00
G01 X13.7197 Y6.4535 F120.00
G01 X13.7421 Y6.2260 F120.00
G01 X13.7197 Y5.9985 F120.00
G01 X13.6534 Y5.7797 F120.00
G01 X13.5456 Y5.5781 F120.00
G01 X13.4006 Y5.4014 F120.00
G01 X13.2239 Y5.2564 F120.00
G01 X13.0223 Y5.1486 F120.00
G01 X12.8035 Y5.0823 F120.00
G01 X12.6330 Y5.0655 F120.00
G01 X11.7190 Y5.0655 F120.00
G01 X11.5485 Y5.0823 F120.00
G01 X11.3297 Y5.1486 F120.00
G01 X11.1281 Y5.2564 F120.00
G01 X11.0654 Y5.3076 F120.00
G01 X11.0495 Y5.3192 F120.00
G01 X11.0264 Y5.3331 F120.00
G01 X11.0020 Y5.3446 F120.00
G01 X10.9836 Y5.3514 F120.00
G01 X10.9732 Y5.3547 F120.00
G01 X10.9541 Y5.3595 F120.00
G01 X10.9470 Y5.3609 F120.00
G01 X10.9275 Y5.3638 F120.00
G01 X10.9167 Y5.3647 F120.00
G01 X10.8970 Y5.3655 F120.00
G01 X10.3403 Y5.3655 F120.00
G01 X10.3134 Y5.3642 F120.00
G01 X10.2903 Y5.3609 F120.00
G01 X10.2797 Y5.3586 F120.00
G01 X10.2606 Y5.3537 F120.00
G01 X10.2420 Y5.3472 F120.00
G01 X10.2319 Y5.3432 F120.00
G01 X10.2109 Y5.3331 F120.00
G01 X10.1939 Y5.3231 F120.00
G01 X10.1383 Y5.2862 F120.00
G01 X9.9453 Y5.2062 F120.00
G01 X9.7405 Y5.1655 F120.00
G01 X9.5315 Y5.1655 F120.00
G01 X9.3267 Y5.2062 F120.00
G01 X9.1337 Y5.2862 F120.00
G01 X9.0781 Y5.3231 F120.00
G01 X9.0611 Y5.3331 F120.00
G01 X9.0368 Y5.3446 F120.00
G01 X9.0114 Y5.3537 F120.00
G01 X8.9888 Y5.3595 F120.00
G01 X8.9658 Y5.3633 F120.00
G01 X8.9514 Y5.3647 F120.00
G01 X8.9317 Y5.3655 F120.00
G01 X6.1221 Y5.3655 F120.00
G01 X6.0952 Y5.3642 F120.00
G01 X6.0721 Y5.3609 F120.00
G01 X6.0494 Y5.3556 F120.00
G01 X6.0356 Y5.3514 F120.00
G01 X6.0171 Y5.3446 F120.00
G01 X5.9992 Y5.3363 F120.00
G01 X5.9896 Y5.3313 F120.00
G01 X5.9727 Y5.3212 F120.00
G01 X5.9637 Y5.3151 F120.00
G01 X5.9480 Y5.3032 F120.00
G01 X5.9280 Y5.2851 F120.00
G01 X4.3458 Y3.7028 F120.00
G01 X4.3277 Y3.6829 F120.00
G01 X4.3116 Y3.6612 F120.00
G01 X4.2978 Y3.6381 F120.00
G01 X4.2863 Y3.6138 F120.00
G01 X4.2783 Y3.5918 F120.00
G01 X4.2752 Y3.5814 F120.00
G01 X4.2706 Y3.5623 F120.00
G01 X4.2279 Y3.3475 F120.00
G01 X4.1404 Y3.1363 F120.00
G01 X4.0134 Y2.9462 F120.00
G01 X3.8518 Y2.7846 F120.00
G01 X3.6617 Y2.6576 F120.00
G01 X3.4505 Y2.5701 F120.00
G01 X3.4352 Y2.5669 F120.00
G01 X3.4123 Y2.5607 F120.00
G01 X3.3899 Y2.5524 F120.00
G01 X3.3684 Y2.5423 F120.00
G01 X3.3587 Y2.5369 F120.00
G01 X3.3416 Y2.5262 F120.00
G01 X3.3255 Y2.5143 F120.00
G01 X3.3169 Y2.5073 F120.00
G01 X3.2995 Y2.4910 F120.00
G01 X3.2861 Y2.4760 F120.00
G01 X3.2791 Y2.4674 F120.00
G01 X3.2673 Y2.4511 F120.00
G01 X3.2615 Y2.4417 F120.00
G01 X3.2499 Y2.4209 F120.00
G01 X3.2403 Y2.3991 F120.00
G01 X3.2326 Y2.3766 F120.00
G01 X3.2270 Y2.3534 F120.00
G01 X3.2250 Y2.3426 F120.00
G01 X3.2222 Y2.3189 F120.00
G01 X3.2216 Y2.2951 F120.00
G01 X3.2220 Y2.2840 F120.00
G01 X3.2243 Y2.2603 F120.00
G01 X3.2287 Y2.2369 F120.00
G01 X3.2351 Y2.2140 F120.00
G01 X3.2435 Y2.1918 F120.00
G01 X3.2480 Y2.1816 F120.00
G01 X3.2591 Y2.1606 F120.00
G01 X3.2721 Y2.1406 F120.00
G01 X3.2764 Y2.1346 F120.00
G01 X3.2891 Y2.1190 F120.00
G01 X3.2940 Y2.1135 F120.00
G01 X3.3081 Y2.0992 F120.00
G01 X3.3136 Y2.0942 F120.00
G01 X3.3291 Y2.0814 F120.00
G01 X3.3486 Y2.0678 F120.00
G01 X3.6714 Y1.8742 F120.00
G01 X3.6920 Y1.8633 F120.00
G01 X4.0356 Y1.7008 F120.00
G01 X4.0537 Y1.6931 F120.00
G01 X4.4183 Y1.5625 F120.00
G01 X4.4441 Y1.5547 F120.00
G01 X4.8198 Y1.4607 F120.00
G01 X4.8392 Y1.4570 F120.00
G01 X5.2151 Y1.4013 F120.00
G01 X5.2419 Y1.3986 F120.00
G01 X5.6345 Y1.3796 F120.00
G01 X24.9369 Y1.3795 F120.00
G01 X24.9504 Y1.3798 F120.00
G01 X25.3367 Y1.3989 F120.00
G01 X25.3598 Y1.4013 F120.00
G01 X25.7358 Y1.4570 F120.00
G01 X25.7622 Y1.4623 F120.00
G01 X26.1379 Y1.5566 F120.00
G01 X26.1567 Y1.5625 F120.00
G01 X26.5145 Y1.6905 F120.00
G01 X26.5394 Y1.7008 F120.00
G01 X26.8895 Y1.8666 F120.00
G01 X26.9068 Y1.8760 F120.00
G01 X27.2328 Y2.0714 F120.00
G01 X27.2552 Y2.0864 F120.00
G01 X27.5604 Y2.3128 F120.00
G01 X27.5758 Y2.3251 F120.00
G01 X27.8629 Y2.5851 F120.00
G01 X27.8819 Y2.6041 F120.00
G01 X28.1371 Y2.8858 F120.00
G01 X28.1498 Y2.9009 F120.00
G01 X28.3848 Y3.2178 F120.00
G01 X28.3956 Y3.2342 F120.00
G01 X28.5910 Y3.5602 F120.00
G01 X28.6037 Y3.5840 F120.00
G01 X28.7691 Y3.9342 F120.00
G01 X28.7765 Y3.9525 F120.00
G01 X28.9068 Y4.3172 F120.00
G01 X28.9123 Y4.3361 F120.00
G01 X29.0063 Y4.7118 F120.00
G01 X29.0100 Y4.7312 F120.00
G01 X29.0666 Y5.1143 F120.00
G01 X29.0684 Y5.1339 F120.00
G01 X29.0874 Y5.5265 F120.00
G01 X29.0875 Y13.3989 F120.00
G01 X29.0872 Y13.4124 F120.00
G01 X29.0678 Y13.8023 F120.00
G01 X29.0657 Y13.8219 F120.00
G01 X29.0094 Y14.2014 F120.00
G01 X29.0047 Y14.2242 F120.00
G01 X28.9123 Y14.5929 F120.00
G01 X28.9068 Y14.6118 F120.00
G01 X28.7765 Y14.9765 F120.00
G01 X28.7662 Y15.0014 F120.00
G01 X28.6004 Y15.3515 F120.00
G01 X28.5910 Y15.3688 F120.00
G01 X28.3956 Y15.6948 F120.00
G01 X28.3806 Y15.7172 F120.00
G01 X28.1498 Y16.0281 F120.00
G01 X28.1371 Y16.0432 F120.00
G01 X27.8819 Y16.3249 F120.00
G01 X27.8681 Y16.3389 F120.00
G01 X27.5812 Y16.5991 F120.00
G01 X27.5604 Y16.6162 F120.00
G01 X27.2492 Y16.8468 F120.00
G01 X27.2328 Y16.8576 F120.00
G01 X26.9068 Y17.0530 F120.00
G01 X26.8830 Y17.0657 F120.00
G01 X26.5328 Y17.2311 F120.00
G01 X26.5145 Y17.2385 F120.00
G01 X26.1567 Y17.3665 F120.00
G01 X26.1309 Y17.3743 F120.00
G01 X25.7622 Y17.4667 F120.00
G01 X25.7430 Y17.4707 F120.00
G01 X25.4017 Y17.5215 F120.00
G01 X25.3834 Y17.5236 F120.00
G01 X25.3641 Y17.5245 F120.00
G01 X13.6627 Y17.5245 F120.00
G01 X13.6430 Y17.5237 F120.00
G01 X13.6322 Y17.5228 F120.00
G01 X13.6127 Y17.5199 F120.00
G01 X13.6021 Y17.5176 F120.00
G01 X13.5830 Y17.5127 F120.00
G01 X13.5644 Y17.5062 F120.00
G01 X13.5543 Y17.5022 F120.00
G01 X13.5333 Y17.4921 F120.00
G01 X13.5163 Y17.4821 F120.00
G01 X13.5072 Y17.4762 F120.00
G01 X13.4914 Y17.4644 F120.00
G01 X13.4831 Y17.4575 F120.00
G01 X13.4686 Y17.4441 F120.00
G01 X13.4552 Y17.4296 F120.00
G01 X13.4482 Y17.4213 F120.00
G01 X13.4365 Y17.4055 F120.00
G01 X13.4306 Y17.3964 F120.00
G01 X13.4189 Y17.3762 F120.00
G01 X13.4091 Y17.3550 F120.00
G01 X13.4011 Y17.3331 F120.00
G01 X13.3951 Y17.3106 F120.00
G01 X13.3928 Y17.3000 F120.00
G01 X13.3895 Y17.2769 F120.00
G01 X13.3882 Y17.2536 F120.00
G01 X13.3884 Y17.2428 F120.00
G01 X13.3896 Y17.2225 F120.00
G01 X13.3896 Y15.5495 F120.00
G01 X13.3813 Y15.4653 F120.00
G01 X13.3607 Y15.3974 F120.00
G01 X13.3272 Y15.3347 F120.00
G01 X13.2821 Y15.2799 F120.00
G01 X13.2273 Y15.2348 F120.00
G01 X13.1646 Y15.2013 F120.00
G01 X13.1145 Y15.1861 F120.00
G01 X13.0959 Y15.1794 F120.00
G01 X13.0892 Y15.1767 F120.00
G01 X13.0714 Y15.1682 F120.00
G01 X13.0512 Y15.1566 F120.00
G01 X13.0392 Y15.1486 F120.00
G01 X13.0207 Y15.1343 F120.00
G01 X13.0035 Y15.1186 F120.00
G01 X12.9878 Y15.1014 F120.00
G01 X12.9736 Y15.0829 F120.00
G01 X12.9655 Y15.0709 F120.00
G01 X12.9539 Y15.0507 F120.00
G01 X12.9454 Y15.0329 F120.00
G01 X12.9427 Y15.0262 F120.00
G01 X12.9349 Y15.0042 F120.00
G01 X12.9284 Y14.9780 F120.00
G01 X12.9244 Y14.9514 F120.00
G01 X12.9233 Y14.9317 F120.00
G01 X12.9233 Y14.9173 F120.00
G01 X12.9248 Y14.8940 F120.00
G01 X12.9284 Y14.8709 F120.00
G01 X12.9349 Y14.8448 F120.00
G01 X12.9440 Y14.8194 F120.00
G01 X12.9523 Y14.8016 F120.00
G01 X12.9591 Y14.7888 F120.00
G01 X12.9714 Y14.7690 F120.00
G01 X12.9854 Y14.7504 F120.00
G01 X13.0010 Y14.7330 F120.00
G01 X13.1163 Y14.6177 F120.00
G01 X13.2189 Y14.4641 F120.00
G01 X13.2326 Y14.4453 F120.00
G01 X13.2372 Y14.4397 F120.00
G01 X13.2505 Y14.4251 F120.00
